P3
1280 720
255
220 235 255 220 235 255 220 235 255 220 235 255 220 235 255 220 235 255 220 235 255 220 235 255 220 235 255 220 235 255 220 235 255 220 235 255 220 235 255 220 235 255 220 235 255 220 235 255 220 235 255 220 235 255 220 235 255 220 235 255 220 235 255 220 235 255 220 235 255 220 235 255 220 235 255 220 235 255 220 235 255 220 235 255 220 235 255 220 235 255 220 235 255 220 235 255 220 235 255 220 235 255 220 235 255 220 235 255 220 235 255 220 235 255 220 235 255 220 235 255 220 235 255 220 235 255 220 235 255 220 235 255 220 235 255 220 235 255 220 235 255 220 235 255 220 235 255 220 235 255 220 235 255 220 235 255 220 235 255 220 235 255 220 235 255 220 235 255 220 235 255 220 235 255 220 235 255 220 235 255 220 235 255 220 235 255 220 235 255 220 235 255 220 235 255 220 235 255 220 235 255 220 235 255 220 235 255 220 235 255 220 235 255 220 235 255 220 235 255 220 235 255 220 235 255 220 235 255 220 235 255 220 235 255 220 235 255 220 235 255 220 235 255 220 235 255 220 235 255 220 235 255 220 235 255 220 235 255 220 235 255 220 235 255 220 235 255 220 235 255 220 235 255 220 235 255 220 235 255 220 235 255 220 235 255 220 235 255 220 235 255 220 235 255 220 235 255 220 235 255 220 235 255 220 235 255 220 235 255 220 235 255 220 235 255 220 235 255 220 235 255 220 235 255 220 235 255 220 235 255 220 235 255 220 235 255 220 235 255 220 235 255 220 235 255 220 235 255 220 235 255 220 235 255 220 235 255 220 235 255 220 235 255 220 235 255 220 235 255 220 235 255 220 235 255 220 235 255 220 235 255 220 235 255 220 235 255 220 235 255 220 235 255 220 235 255 220 235 255 220 235 255 220 235 255 220 235 255 220 235 255 220 235 255 220 235 255 220 235 255 220 235 255 220 235 255 220 235 255 220 235 255 220 235 255 220 235 255 220 235 255 220 235 255 220 235 255 220 235 255 220 235 255 220 235 255 220 235 255 220 235 255 220 235 255 220 235 255 220 235 255 220 235 255 220 235 255 220 235 255 220 235 255 220 235 255 220 235 255 220 235 255 220 235 255 220 235 255 220 235 255 220 235 255 220 235 255 220 235 255 220 235 255 220 235 255 220 235 255 220 235 255 220 235 255 220 235 255 220 235 255 220 235 255 220 235 255 220 235 255 220 235 255 220 235 255 220 235 255 220 235 255 220 235 255 220 235 255 220 235 255 220 235 255 220 235 255 220 235 255 220 235 255 220 235 255 220 235 255 220 235 255 220 235 255 220 235 255 220 235 255 220 235 255 220 235 255 220 235 255 220 235 255 220 235 255 220 235 255 220 235 255 220 235 255 220 235 255 220 235 255 220 235 255 220 235 255 220 235 255 220 235 255 220 235 255 220 235 255 220 235 255 220 235 255 220 235 255 220 235 255 220 235 255 220 235 255 220 235 255 220 235 255 220 235 255 220 235 255 220 235 255 220 235 255 220 235 255 220 235 255 220 235 255 220 235 255 220 235 255 220 235 255 220 235 255 220 235 255 220 235 255 220 235 255 220 235 255 220 235 255 220 235 255 220 235 255 220 235 255 220 235 255 220 235 255 220 235 255 220 235 255 220 235 255 220 235 255 220 235 255 220 235 255 220 235 255 220 235 255 220 235 255 220 235 255 220 235 255 220 235 255 220 235 255 220 235 255 220 235 255 220 235 255 220 235 255 220 235 255 220 235 255 220 235 255 220 235 255 220 235 255 220 235 255 220 235 255 220 235 255 220 235 255 220 235 255 220 235 255 220 235 255 220 235 255 220 235 255 220 235 255 220 235 255 220 235 255 220 235 255 220 235 255 220 235 255 220 235 255 220 235 255 220 235 255 220 235 255 220 235 255 220 235 255 220 235 255 220 235 255 220 235 255 220 235 255 220 235 255 220 235 255 220 235 255 220 235 255 220 235 255 220 235 255 220 235 255 220 235 255 220 235 255 220 235 255 220 235 255 220 235 255 220 235 255 220 235 255 220 235 255 220 235 255 220 235 255 220 235 255 220 235 255 220 235 255 220 235 255 220 235 255 220 235 255 220 235 255 220 235 255 220 235 255 220 235 255 220 235 255 220 235 255 220 235 255 220 235 255 220 235 255 220 235 255 220 235 255 220 235 255 220 235 255 220 235 255 220 235 255 220 235 255 220 235 255 220 235 255 220 235 255 220 235 255 220 235 255 220 235 255 220 235 255 220 235 255 220 235 255 220 235 255 220 235 255 220 235 255 220 235 255 220 235 255 220 235 255 220 235 255 220 235 255 220 235 255 220 235 255 220 235 255 220 235 255 220 235 255 220 235 255 220 235 255 220 235 255 220 235 255 220 235 255 220 235 255 220 235 255 220 235 255 220 235 255 220 235 255 220 235 255 220 235 255 220 235 255 220 235 255 220 235 255 220 235 255 220 235 255 220 235 255 220 235 255 220 235 255 220 235 255 220 235 255 220 235 255 220 235 255 220 235 255 220 235 255 220 235 255 220 235 255 220 235 255 220 235 255 220 235 255 220 235 255 220 235 255 220 235 255 220 235 255 220 235 255 220 235 255 220 235 255 220 235 255 220 235 255 220 235 255 220 235 255 220 235 255 220 235 255 220 235 255 220 235 255 220 235 255 220 235 255 220 235 255 220 235 255 220 235 255 220 235 255 220 235 255 220 235 255 220 235 255 220 235 255 220 235 255 220 235 255 220 235 255 220 235 255 220 235 255 220 235 255 220 235 255 220 235 255 220 235 255 220 235 255 220 235 255 220 235 255 220 235 255 220 235 255 220 235 255 220 235 255 220 235 255 220 235 255 220 235 255 220 235 255 220 235 255 220 235 255 220 235 255 220 235 255 220 235 255 220 235 255 220 235 255 220 235 255 220 235 255 220 235 255 220 235 255 220 235 255 220 235 255 220 235 255 220 235 255 220 235 255 220 235 255 220 235 255 220 235 255 220 235 255 220 235 255 220 235 255 220 235 255 220 235 255 220 235 255 220 235 255 220 235 255 220 235 255 220 235 255 220 235 255 220 235 255 220 235 255 220 235 255 220 235 255 220 235 255 220 235 255 220 235 255 220 235 255 220 235 255 220 235 255 220 235 255 220 235 255 220 235 255 220 235 255 220 235 255 220 235 255 220 235 255 220 235 255 220 235 255 220 235 255 220 235 255 220 235 255 220 235 255 220 235 255 220 235 255 220 235 255 220 235 255 220 235 255 220 235 255 220 235 255 220 235 255 220 235 255 220 235 255 220 235 255 220 235 255 220 235 255 220 235 255 220 235 255 220 235 255 220 235 255 220 235 255 220 235 255 220 235 255 220 235 255 220 235 255 220 235 255 220 235 255 220 235 255 220 235 255 220 235 255 220 235 255 220 235 255 220 235 255 220 235 255 220 235 255 220 235 255 220 235 255 220 235 255 220 235 255 220 235 255 220 235 255 220 235 255 220 235 255 220 235 255 220 235 255 220 235 255 220 235 255 220 235 255 220 235 255 220 235 255 220 235 255 220 235 255 220 235 255 220 235 255 220 235 255 220 235 255 220 235 255 220 235 255 220 235 255 220 235 255 220 235 255 220 235 255 220 235 255 220 235 255 220 235 255 220 235 255 220 235 255 220 235 255 220 235 255 220 235 255 220 235 255 220 235 255 220 235 255 220 235 255 220 235 255 220 235 255 220 235 255 220 235 255 220 235 255 220 235 255 220 235 255 220 235 255 220 235 255 220 235 255 220 235 255 220 235 255 220 235 255 220 235 255 220 235 255 220 235 255 220 235 255 220 235 255 220 235 255 220 235 255 220 235 255 220 235 255 220 235 255 220 235 255 220 235 255 220 235 255 220 235 255 220 235 255 220 235 255 220 235 255 220 235 255 220 235 255 220 235 255 220 235 255 220 235 255 220 235 255 220 235 255 220 235 255 220 235 255 220 235 255 220 235 255 220 235 255 220 235 255 220 235 255 220 235 255 220 235 255 220 235 255 220 235 255 220 235 255 220 235 255 220 235 255 220 235 255 220 235 255 220 235 255 220 235 255 220 235 255 220 235 255 220 235 255 220 235 255 220 235 255 220 235 255 220 235 255 220 235 255 220 235 255 220 235 255 220 235 255 220 235 255 220 235 255 220 235 255 220 235 255 220 235 255 220 235 255 220 235 255 220 235 255 220 235 255 220 235 255 220 235 255 220 235 255 220 235 255 220 235 255 220 235 255 220 235 255 220 235 255 220 235 255 220 235 255 220 235 255 220 235 255 220 235 255 220 235 255 220 235 255 220 235 255 220 235 255 220 235 255 220 235 255 220 235 255 220 235 255 220 235 255 220 235 255 220 235 255 220 235 255 220 235 255 220 235 255 220 235 255 220 235 255 220 235 255 220 235 255 220 235 255 220 235 255 220 235 255 220 235 255 220 235 255 220 235 255 220 235 255 220 235 255 220 235 255 220 235 255 220 235 255 220 235 255 220 235 255 220 235 255 220 235 255 220 235 255 220 235 255 220 235 255 220 235 255 220 235 255 220 235 255 220 235 255 220 235 255 220 235 255 220 235 255 220 235 255 220 235 255 220 235 255 220 235 255 220 235 255 220 235 255 220 235 255 220 235 255 220 235 255 220 235 255 220 235 255 220 235 255 220 235 255 220 235 255 220 235 255 220 235 255 220 235 255 220 235 255 220 235 255 220 235 255 220 235 255 220 235 255 220 235 255 220 235 255 220 235 255 220 235 255 220 235 255 220 235 255 220 235 255 220 235 255 220 235 255 220 235 255 220 235 255 220 235 255 220 235 255 220 235 255 220 235 255 220 235 255 220 235 255 220 235 255 220 235 255 220 235 255 220 235 255 220 235 255 220 235 255 220 235 255 220 235 255 220 235 255 220 235 255 220 235 255 220 235 255 220 235 255 220 235 255 220 235 255 220 235 255 220 235 255 220 235 255 220 235 255 220 235 255 220 235 255 220 235 255 220 235 255 220 235 255 220 235 255 220 235 255 220 235 255 220 235 255 220 235 255 220 235 255 220 235 255 220 235 255 220 235 255 220 235 255 220 235 255 220 235 255 220 235 255 220 235 255 220 235 255 220 235 255 220 235 255 220 235 255 220 235 255 220 235 255 220 235 255 220 235 255 220 235 255 220 235 255 220 235 255 220 235 255 220 235 255 220 235 255 220 235 255 220 235 255 220 235 255 220 235 255 220 235 255 220 235 255 220 235 255 220 235 255 220 235 255 220 235 255 220 235 255 220 235 255 220 235 255 220 235 255 220 235 255 220 235 255 220 235 255 220 235 255 220 235 255 220 235 255 220 235 255 220 235 255 220 235 255 220 235 255 220 235 255 220 235 255 220 235 255 220 235 255 220 235 255 220 235 255 220 235 255 220 235 255 220 235 255 220 235 255 220 235 255 220 235 255 220 235 255 220 235 255 220 235 255 220 235 255 220 235 255 220 235 255 220 235 255 220 235 255 220 235 255 220 235 255 220 235 255 220 235 255 220 235 255 220 235 255 220 235 255 220 235 255 220 235 255 220 235 255 220 235 255 220 235 255 220 235 255 220 235 255 220 235 255 220 235 255 220 235 255 220 235 255 220 235 255 220 235 255 220 235 255 220 235 255 220 235 255 220 235 255 220 235 255 220 235 255 220 235 255 220 235 255 220 235 255 220 235 255 220 235 255 220 235 255 220 235 255 220 235 255 220 235 255 220 235 255 220 235 255 220 235 255 220 235 255 220 235 255 220 235 255 220 235 255 220 235 255 220 235 255 220 235 255 220 235 255 220 235 255 220 235 255 220 235 255 220 235 255 220 235 255 220 235 255 220 235 255 220 235 255 220 235 255 220 235 255 220 235 255 220 235 255 220 235 255 220 235 255 220 235 255 220 235 255 220 235 255 220 235 255 220 235 255 220 235 255 220 235 255 220 235 255 220 235 255 220 235 255 220 235 255 220 235 255 220 235 255 220 235 255 220 235 255 220 235 255 220 235 255 220 235 255 220 235 255 220 235 255 220 235 255 220 235 255 220 235 255 220 235 255 220 235 255 220 235 255 220 235 255 220 235 255 220 235 255 220 235 255 220 235 255 220 235 255 220 235 255 220 235 255 220 235 255 220 235 255 220 235 255 220 235 255 220 235 255 220 235 255 220 235 255 220 235 255 220 235 255 220 235 255 220 235 255 220 235 255 220 235 255 220 235 255 220 235 255 220 235 255 220 235 255 220 235 255 220 235 255 220 235 255 220 235 255 220 235 255 220 235 255 220 235 255 220 235 255 220 235 255 220 235 255 220 235 255 220 235 255 220 235 255 220 235 255 220 235 255 220 235 255 220 235 255 220 235 255 220 235 255 220 235 255 220 235 255 220 235 255 220 235 255 220 235 255 220 235 255 220 235 255 220 235 255 220 235 255 220 235 255 220 235 255 220 235 255 220 235 255 220 235 255 220 235 255 220 235 255 220 235 255 220 235 255 220 235 255 220 235 255 220 235 255 220 235 255 220 235 255 220 235 255 220 235 255 220 235 255 220 235 255 220 235 255 220 235 255 220 235 255 220 235 255 220 235 255 220 235 255 220 235 255 220 235 255 220 235 255 220 235 255 220 235 255 220 235 255 220 235 255 220 235 255 220 235 255 220 235 255 220 235 255 220 235 255 220 235 255 220 235 255 220 235 255 220 235 255 220 235 255 220 235 255 220 235 255 220 235 255 220 235 255 220 235 255 220 235 255 220 235 255 220 235 255 220 235 255 220 235 255 220 235 255 220 235 255 220 235 255 220 235 255 220 235 255 220 235 255 220 235 255 220 235 255 220 235 255 220 235 255 220 235 255 220 235 255 220 235 255 220 235 255 220 235 255 220 235 255 220 235 255 220 235 255 220 235 255 220 235 255 220 235 255 220 235 255 220 235 255 220 235 255 220 235 255 220 235 255 220 235 255 220 235 255 220 235 255 220 235 255 220 235 255 220 235 255 220 235 255 220 235 255 220 235 255 220 235 255 220 235 255 220 235 255 220 235 255 220 235 255 220 235 255 220 235 255 220 235 255 220 235 255 220 235 255 220 235 255 220 235 255 220 235 255 220 235 255 220 235 255 220 235 255 220 235 255 220 235 255 220 235 255 220 235 255 220 235 255 220 235 255 220 235 255 220 235 255 220 235 255 220 235 255 220 235 255 220 235 255 220 235 255 220 235 255 220 235 255 220 235 255 220 235 255 220 235 255 220 235 255 220 235 255 220 235 255 220 235 255 220 235 255 220 235 255 220 235 255 220 235 255 220 235 255 220 235 255 220 235 255 220 235 255 220 235 255 220 235 255 220 235 255 220 235 255 220 235 255 220 235 255 220 235 255 220 235 255 220 235 255 220 235 255 220 235 255 220 235 255 220 235 255 220 235 255 220 235 255 220 235 255 220 235 255 220 235 255 220 235 255 220 235 255 220 235 255 220 235 255 220 235 255 220 235 255 220 235 255 220 235 255 220 235 255 220 235 255 220 235 255 220 235 255 220 235 255 220 235 255 220 235 255 220 235 255 220 235 255 220 235 255 220 235 255 220 235 255 220 235 255 220 235 255 220 235 255 220 235 255 220 235 255 220 235 255 220 235 255 220 235 255 220 235 255 220 235 255 220 235 255 220 235 255 220 235 255 220 235 255 220 235 255 220 235 255 220 235 255 220 235 255 220 235 255 220 235 255 220 235 255 220 235 255 220 235 255 220 235 255 220 235 255 220 235 255 220 235 255 220 235 255 220 235 255 220 235 255 220 235 255 220 235 255 220 235 255 220 235 255 220 235 255 220 235 255 220 235 255 220 235 255 220 235 255 220 235 255 220 235 255 220 235 255 220 235 255 220 235 255 220 235 255 220 235 255 220 235 255 220 235 255 220 235 255 220 235 255 220 235 255 220 235 255 220 235 255 220 235 255 220 235 255 220 235 255 220 235 255 220 235 255 220 235 255 220 235 255 220 235 255 220 235 255 220 235 255 220 235 255 220 235 255 220 235 255 220 235 255 220 235 255 220 235 255 220 235 255 220 235 255 220 235 255 220 235 255 220 235 255 220 235 255 220 235 255 220 235 255 220 235 255 220 235 255 220 235 255 220 235 255 220 235 255 220 235 255 220 235 255 220 235 255 220 235 255 220 235 255 220 235 255 220 235 255 220 235 255 220 235 255 220 235 255 220 235 255 220 235 255 220 235 255 220 235 255 220 235 255 220 235 255 220 235 255 220 235 255 220 235 255 220 235 255 220 235 255 220 235 255 220 235 255 220 235 255 220 235 255 220 235 255 220 235 255 220 235 255 220 235 255 220 235 255 220 235 255 220 235 255 220 235 255 220 235 255 220 235 255 220 235 255 220 235 255 220 235 255 220 235 255 220 235 255 220 235 255 220 235 255 220 235 255 220 235 255 220 235 255 220 235 255 220 235 255 220 235 255 220 235 255 220 235 255 220 235 255 220 235 255 220 235 255 220 235 255 220 235 255 220 235 255 220 235 255 220 235 255 220 235 255 220 235 255 220 235 255 220 235 255 220 235 255 220 235 255 220 235 255 220 235 255 220 235 255 220 235 255 220 235 255 220 235 255 220 235 255 220 235 255 220 235 255 
220 235 255 220 235 255 220 235 255 220 235 255 220 235 255 220 235 255 220 235 255 220 235 255 220 235 255 220 235 255 220 235 255 220 235 255 220 235 255 220 235 255 220 235 255 220 235 255 220 235 255 220 235 255 220 235 255 220 235 255 220 235 255 220 235 255 220 235 255 220 235 255 220 235 255 220 235 255 220 235 255 220 235 255 220 235 255 220 235 255 220 235 255 220 235 255 220 235 255 220 235 255 220 235 255 220 235 255 220 235 255 220 235 255 220 235 255 220 235 255 220 235 255 220 235 255 220 235 255 220 235 255 220 235 255 220 235 255 220 235 255 220 235 255 220 235 255 220 235 255 220 235 255 220 235 255 220 235 255 220 235 255 220 235 255 220 235 255 220 235 255 220 235 255 220 235 255 220 235 255 220 235 255 220 235 255 220 235 255 220 235 255 220 235 255 220 235 255 220 235 255 220 235 255 220 235 255 220 235 255 220 235 255 220 235 255 220 235 255 220 235 255 220 235 255 220 235 255 220 235 255 220 235 255 220 235 255 220 235 255 220 235 255 220 235 255 220 235 255 220 235 255 220 235 255 220 235 255 220 235 255 220 235 255 220 235 255 220 235 255 220 235 255 220 235 255 220 235 255 220 235 255 220 235 255 220 235 255 220 235 255 220 235 255 220 235 255 220 235 255 220 235 255 220 235 255 220 235 255 220 235 255 220 235 255 220 235 255 220 235 255 220 235 255 220 235 255 220 235 255 220 235 255 220 235 255 220 235 255 220 235 255 220 235 255 220 235 255 220 235 255 220 235 255 220 235 255 220 235 255 220 235 255 220 235 255 220 235 255 220 235 255 220 235 255 220 235 255 220 235 255 220 235 255 220 235 255 220 235 255 220 235 255 220 235 255 220 235 255 220 235 255 220 235 255 220 235 255 220 235 255 220 235 255 220 235 255 220 235 255 220 235 255 220 235 255 220 235 255 220 235 255 220 235 255 220 235 255 220 235 255 220 235 255 220 235 255 220 235 255 220 235 255 220 235 255 220 235 255 220 235 255 220 235 255 220 235 255 220 235 255 220 235 255 220 235 255 220 235 255 220 235 255 220 235 255 220 235 255 220 235 255 220 235 255 220 235 255 220 235 255 220 235 255 220 235 255 220 235 255 220 235 255 220 235 255 220 235 255 220 235 255 220 235 255 220 235 255 220 235 255 220 235 255 220 235 255 220 235 255 220 235 255 220 235 255 220 235 255 220 235 255 220 235 255 220 235 255 220 235 255 220 235 255 220 235 255 220 235 255 220 235 255 220 235 255 220 235 255 220 235 255 220 235 255 220 235 255 220 235 255 220 235 255 220 235 255 220 235 255 220 235 255 220 235 255 220 235 255 220 235 255 220 235 255 220 235 255 220 235 255 220 235 255 220 235 255 220 235 255 220 235 255 220 235 255 220 235 255 220 235 255 220 235 255 220 235 255 220 235 255 220 235 255 220 235 255 220 235 255 220 235 255 220 235 255 220 235 255 220 235 255 220 235 255 220 235 255 220 235 255 220 235 255 220 235 255 220 235 255 220 235 255 220 235 255 220 235 255 220 235 255 220 235 255 220 235 255 220 235 255 220 235 255 220 235 255 220 235 255 220 235 255 220 235 255 220 235 255 220 235 255 220 235 255 220 235 255 220 235 255 220 235 255 220 235 255 220 235 255 220 235 255 220 235 255 220 235 255 220 235 255 220 235 255 220 235 255 220 235 255 220 235 255 220 235 255 220 235 255 220 235 255 220 235 255 220 235 255 220 235 255 220 235 255 220 235 255 220 235 255 220 235 255 220 235 255 220 235 255 220 235 255 220 235 255 220 235 255 220 235 255 220 235 255 220 235 255 220 235 255 220 235 255 220 235 255 220 235 255 220 235 255 220 235 255 220 235 255 220 235 255 220 235 255 220 235 255 220 235 255 220 235 255 220 235 255 220 235 255 220 235 255 220 235 255 220 235 255 220 235 255 220 235 255 220 235 255 220 235 255 220 235 255 220 235 255 220 235 255 220 235 255 220 235 255 220 235 255 220 235 255 220 235 255 220 235 255 220 235 255 220 235 255 220 235 255 220 235 255 220 235 255 220 235 255 220 235 255 220 235 255 220 235 255 220 235 255 220 235 255 220 235 255 220 235 255 220 235 255 220 235 255 220 235 255 220 235 255 220 235 255 220 235 255 220 235 255 220 235 255 220 235 255 220 235 255 220 235 255 220 235 255 220 235 255 220 235 255 220 235 255 220 235 255 220 235 255 220 235 255 220 235 255 220 235 255 220 235 255 220 235 255 220 235 255 220 235 255 220 235 255 220 235 255 220 235 255 220 235 255 220 235 255 220 235 255 220 235 255 220 235 255 220 235 255 220 235 255 220 235 255 220 235 255 220 235 255 220 235 255 220 235 255 220 235 255 220 235 255 220 235 255 220 235 255 220 235 255 220 235 255 220 235 255 220 235 255 220 235 255 220 235 255 220 235 255 220 235 255 220 235 255 220 235 255 220 235 255 220 235 255 220 235 255 220 235 255 220 235 255 220 235 255 220 235 255 220 235 255 220 235 255 220 235 255 220 235 255 220 235 255 220 235 255 220 235 255 220 235 255 220 235 255 220 235 255 220 235 255 220 235 255 220 235 255 220 235 255 220 235 255 220 235 255 220 235 255 220 235 255 220 235 255 220 235 255 220 235 255 220 235 255 220 235 255 220 235 255 220 235 255 220 235 255 220 235 255 220 235 255 220 235 255 220 235 255 220 235 255 220 235 255 220 235 255 220 235 255 220 235 255 220 235 255 220 235 255 220 235 255 220 235 255 220 235 255 220 235 255 220 235 255 220 235 255 220 235 255 220 235 255 220 235 255 220 235 255 220 235 255 220 235 255 220 235 255 220 235 255 220 235 255 220 235 255 220 235 255 220 235 255 220 235 255 220 235 255 220 235 255 220 235 255 220 235 255 220 235 255 220 235 255 220 235 255 220 235 255 220 235 255 220 235 255 220 235 255 220 235 255 220 235 255 220 235 255 220 235 255 220 235 255 220 235 255 220 235 255 220 235 255 220 235 255 220 235 255 220 235 255 220 235 255 220 235 255 220 235 255 220 235 255 220 235 255 220 235 255 220 235 255 220 235 255 220 235 255 220 235 255 220 235 255 220 235 255 220 235 255 220 235 255 220 235 255 220 235 255 220 235 255 220 235 255 220 235 255 220 235 255 220 235 255 220 235 255 220 235 255 220 235 255 220 235 255 220 235 255 220 235 255 220 235 255 220 235 255 220 235 255 220 235 255 220 235 255 220 235 255 220 235 255 220 235 255 220 235 255 220 235 255 220 235 255 220 235 255 220 235 255 220 235 255 220 235 255 220 235 255 220 235 255 220 235 255 220 235 255 220 235 255 220 235 255 220 235 255 220 235 255 220 235 255 220 235 255 220 235 255 220 235 255 220 235 255 220 235 255 220 235 255 220 235 255 220 235 255 220 235 255 220 235 255 220 235 255 220 235 255 220 235 255 220 235 255 220 235 255 220 235 255 220 235 255 220 235 255 220 235 255 220 235 255 220 235 255 220 235 255 220 235 255 220 235 255 220 235 255 220 235 255 220 235 255 220 235 255 220 235 255 220 235 255 220 235 255 220 235 255 220 235 255 220 235 255 220 235 255 220 235 255 220 235 255 220 235 255 220 235 255 220 235 255 220 235 255 220 235 255 220 235 255 220 235 255 220 235 255 220 235 255 220 235 255 220 235 255 220 235 255 220 235 255 220 235 255 220 235 255 220 235 255 220 235 255 220 235 255 220 235 255 220 235 255 220 235 255 220 235 255 220 235 255 220 235 255 220 235 255 220 235 255 220 235 255 220 235 255 220 235 255 220 235 255 220 235 255 220 235 255 220 235 255 220 235 255 220 235 255 220 235 255 220 235 255 220 235 255 220 235 255 220 235 255 220 235 255 220 235 255 220 235 255 220 235 255 220 235 255 220 235 255 220 235 255 220 235 255 220 235 255 220 235 255 220 235 255 220 235 255 220 235 255 220 235 255 220 235 255 220 235 255 220 235 255 220 235 255 220 235 255 220 235 255 220 235 255 220 235 255 220 235 255 220 235 255 220 235 255 220 235 255 220 235 255 220 235 255 220 235 255 220 235 255 220 235 255 220 235 255 220 235 255 220 235 255 220 235 255 220 235 255 220 235 255 220 235 255 220 235 255 220 235 255 220 235 255 220 235 255 220 235 255 220 235 255 220 235 255 220 235 255 220 235 255 220 235 255 220 235 255 220 235 255 220 235 255 220 235 255 220 235 255 220 235 255 220 235 255 220 235 255 220 235 255 220 235 255 220 235 255 220 235 255 220 235 255 220 235 255 220 235 255 220 235 255 220 235 255 220 235 255 220 235 255 220 235 255 220 235 255 220 235 255 220 235 255 220 235 255 220 235 255 220 235 255 220 235 255 220 235 255 220 235 255 220 235 255 220 235 255 220 235 255 220 235 255 220 235 255 220 235 255 220 235 255 220 235 255 220 235 255 220 235 255 220 235 255 220 235 255 220 235 255 220 235 255 220 235 255 220 235 255 220 235 255 220 235 255 220 235 255 220 235 255 220 235 255 220 235 255 220 235 255 220 235 255 220 235 255 220 235 255 220 235 255 220 235 255 220 235 255 220 235 255 220 235 255 220 235 255 220 235 255 220 235 255 220 235 255 220 235 255 220 235 255 220 235 255 220 235 255 220 235 255 220 235 255 220 235 255 220 235 255 220 235 255 220 235 255 220 235 255 220 235 255 220 235 255 220 235 255 220 235 255 220 235 255 220 235 255 220 235 255 220 235 255 220 235 255 220 235 255 220 235 255 220 235 255 220 235 255 220 235 255 220 235 255 220 235 255 220 235 255 220 235 255 220 235 255 220 235 255 220 235 255 220 235 255 220 235 255 220 235 255 220 235 255 220 235 255 220 235 255 220 235 255 220 235 255 220 235 255 220 235 255 220 235 255 220 235 255 220 235 255 220 235 255 220 235 255 220 235 255 220 235 255 220 235 255 220 235 255 220 235 255 220 235 255 220 235 255 220 235 255 220 235 255 220 235 255 220 235 255 220 235 255 220 235 255 220 235 255 220 235 255 220 235 255 220 235 255 220 235 255 220 235 255 220 235 255 220 235 255 220 235 255 220 235 255 220 235 255 220 235 255 220 235 255 220 235 255 220 235 255 220 235 255 220 235 255 220 235 255 220 235 255 220 235 255 220 235 255 220 235 255 220 235 255 220 235 255 220 235 255 220 235 255 220 235 255 220 235 255 220 235 255 220 235 255 220 235 255 220 235 255 220 235 255 220 235 255 220 235 255 220 235 255 220 235 255 220 235 255 220 235 255 220 235 255 220 235 255 220 235 255 220 235 255 220 235 255 220 235 255 220 235 255 220 235 255 220 235 255 220 235 255 220 235 255 220 235 255 220 235 255 220 235 255 220 235 255 220 235 255 220 235 255 220 235 255 220 235 255 220 235 255 220 235 255 220 235 255 220 235 255 220 235 255 220 235 255 220 235 255 220 235 255 220 235 255 220 235 255 220 235 255 220 235 255 220 235 255 220 235 255 220 235 255 220 235 255 220 235 255 220 235 255 220 235 255 220 235 255 220 235 255 220 235 255 220 235 255 220 235 255 220 235 255 220 235 255 220 235 255 220 235 255 220 235 255 220 235 255 220 235 255 220 235 255 220 235 255 220 235 255 220 235 255 220 235 255 220 235 255 220 235 255 220 235 255 220 235 255 220 235 255 220 235 255 220 235 255 220 235 255 220 235 255 220 235 255 220 235 255 220 235 255 220 235 255 220 235 255 220 235 255 220 235 255 220 235 255 220 235 255 220 235 255 220 235 255 220 235 255 220 235 255 220 235 255 220 235 255 220 235 255 220 235 255 220 235 255 220 235 255 220 235 255 220 235 255 220 235 255 220 235 255 220 235 255 220 235 255 220 235 255 220 235 255 220 235 255 220 235 255 220 235 255 220 235 255 220 235 255 220 235 255 220 235 255 220 235 255 220 235 255 220 235 255 220 235 255 220 235 255 220 235 255 220 235 255 220 235 255 220 235 255 220 235 255 220 235 255 220 235 255 220 235 255 220 235 255 220 235 255 220 235 255 220 235 255 220 235 255 220 235 255 220 235 255 220 235 255 220 235 255 220 235 255 220 235 255 220 235 255 220 235 255 220 235 255 220 235 255 220 235 255 220 235 255 220 235 255 220 235 255 220 235 255 220 235 255 220 235 255 220 235 255 220 235 255 220 235 255 220 235 255 220 235 255 220 235 255 220 235 255 220 235 255 220 235 255 220 235 255 220 235 255 220 235 255 220 235 255 220 235 255 220 235 255 220 235 255 220 235 255 220 235 255 220 235 255 220 235 255 220 235 255 220 235 255 220 235 255 220 235 255 220 235 255 220 235 255 220 235 255 220 235 255 220 235 255 220 235 255 220 235 255 220 235 255 220 235 255 220 235 255 220 235 255 220 235 255 220 235 255 220 235 255 220 235 255 220 235 255 220 235 255 220 235 255 220 235 255 220 235 255 220 235 255 220 235 255 220 235 255 220 235 255 220 235 255 220 235 255 220 235 255 220 235 255 220 235 255 220 235 255 220 235 255 220 235 255 220 235 255 220 235 255 220 235 255 220 235 255 220 235 255 220 235 255 220 235 255 220 235 255 220 235 255 220 235 255 220 235 255 220 235 255 220 235 255 220 235 255 220 235 255 220 235 255 220 235 255 220 235 255 220 235 255 220 235 255 220 235 255 220 235 255 220 235 255 220 235 255 220 235 255 220 235 255 220 235 255 220 235 255 220 235 255 220 235 255 220 235 255 220 235 255 220 235 255 220 235 255 220 235 255 220 235 255 220 235 255 220 235 255 220 235 255 220 235 255 220 235 255 220 235 255 220 235 255 220 235 255 220 235 255 220 235 255 220 235 255 220 235 255 220 235 255 220 235 255 220 235 255 220 235 255 220 235 255 220 235 255 220 235 255 220 235 255 220 235 255 220 235 255 220 235 255 220 235 255 220 235 255 220 235 255 220 235 255 220 235 255 220 235 255 220 235 255 220 235 255 220 235 255 220 235 255 220 235 255 220 235 255 220 235 255 220 235 255 220 235 255 220 235 255 220 235 255 220 235 255 220 235 255 220 235 255 220 235 255 220 235 255 220 235 255 220 235 255 220 235 255 220 235 255 220 235 255 220 235 255 220 235 255 220 235 255 220 235 255 220 235 255 220 235 255 220 235 255 220 235 255 220 235 255 220 235 255 220 235 255 220 235 255 220 235 255 220 235 255 220 235 255 220 235 255 220 235 255 220 235 255 220 235 255 220 235 255 220 235 255 220 235 255 220 235 255 220 235 255 220 235 255 220 235 255 220 235 255 220 235 255 220 235 255 220 235 255 220 235 255 220 235 255 220 235 255 220 235 255 220 235 255 220 235 255 220 235 255 220 235 255 220 235 255 220 235 255 220 235 255 220 235 255 220 235 255 220 235 255 220 235 255 220 235 255 220 235 255 220 235 255 220 235 255 220 235 255 220 235 255 220 235 255 220 235 255 220 235 255 220 235 255 220 235 255 220 235 255 220 235 255 220 235 255 220 235 255 220 235 255 220 235 255 220 235 255 220 235 255 220 235 255 220 235 255 220 235 255 220 235 255 220 235 255 220 235 255 220 235 255 220 235 255 220 235 255 220 235 255 220 235 255 220 235 255 220 235 255 220 235 255 220 235 255 220 235 255 220 235 255 220 235 255 220 235 255 220 235 255 220 235 255 220 235 255 220 235 255 220 235 255 220 235 255 220 235 255 220 235 255 220 235 255 220 235 255 220 235 255 220 235 255 220 235 255 220 235 255 220 235 255 220 235 255 220 235 255 220 235 255 220 235 255 220 235 255 220 235 255 220 235 255 220 235 255 220 235 255 220 235 255 220 235 255 220 235 255 220 235 255 220 235 255 220 235 255 220 235 255 220 235 255 220 235 255 220 235 255 220 235 255 220 235 255 220 235 255 220 235 255 220 235 255 220 235 255 220 235 255 220 235 255 220 235 255 220 235 255 220 235 255 220 235 255 220 235 255 220 235 255 220 235 255 220 235 255 220 235 255 220 235 255 220 235 255 220 235 255 220 235 255 220 235 255 220 235 255 220 235 255 220 235 255 220 235 255 220 235 255 220 235 255 220 235 255 220 235 255 220 235 255 220 235 255 220 235 255 220 235 255 220 235 255 220 235 255 220 235 255 220 235 255 220 235 255 220 235 255 220 235 255 220 235 255 220 235 255 220 235 255 220 235 255 220 235 255 220 235 255 220 235 255 220 235 255 220 235 255 220 235 255 220 235 255 220 235 255 220 235 255 220 235 255 220 235 255 220 235 255 220 235 255 220 235 255 220 235 255 220 235 255 220 235 255 220 235 255 220 235 255 220 235 255 220 235 255 220 235 255 220 235 255 220 235 255 220 235 255 220 235 255 220 235 255 220 235 255 220 235 255 220 235 255 220 235 255 220 235 255 220 235 255 220 235 255 220 235 255 220 235 255 220 235 255 220 235 255 220 235 255 220 235 255 220 235 255 220 235 255 220 235 255 220 235 255 220 235 255 220 235 255 220 235 255 
220 235 255 220 235 255 220 235 255 220 235 255 220 235 255 220 235 255 220 235 255 220 235 255 220 235 255 220 235 255 220 235 255 220 235 255 220 235 255 220 235 255 220 235 255 220 235 255 220 235 255 220 235 255 220 235 255 220 235 255 220 235 255 220 235 255 220 235 255 220 235 255 220 235 255 220 235 255 220 235 255 220 235 255 220 235 255 220 235 255 220 235 255 220 235 255 220 235 255 220 235 255 220 235 255 220 235 255 220 235 255 220 235 255 220 235 255 220 235 255 220 235 255 220 235 255 220 235 255 220 235 255 220 235 255 220 235 255 220 235 255 220 235 255 220 235 255 220 235 255 220 235 255 220 235 255 220 235 255 220 235 255 220 235 255 220 235 255 220 235 255 220 235 255 220 235 255 220 235 255 220 235 255 220 235 255 220 235 255 220 235 255 220 235 255 220 235 255 220 235 255 220 235 255 220 235 255 220 235 255 220 235 255 220 235 255 220 235 255 220 235 255 220 235 255 220 235 255 220 235 255 220 235 255 220 235 255 220 235 255 220 235 255 220 235 255 220 235 255 220 235 255 220 235 255 220 235 255 220 235 255 220 235 255 220 235 255 220 235 255 220 235 255 220 235 255 220 235 255 220 235 255 220 235 255 220 235 255 220 235 255 220 235 255 220 235 255 220 235 255 220 235 255 220 235 255 220 235 255 220 235 255 220 235 255 220 235 255 220 235 255 220 235 255 220 235 255 220 235 255 220 235 255 220 235 255 220 235 255 220 235 255 220 235 255 220 235 255 220 235 255 220 235 255 220 235 255 220 235 255 220 235 255 220 235 255 220 235 255 220 235 255 220 235 255 220 235 255 220 235 255 220 235 255 220 235 255 220 235 255 220 235 255 220 235 255 220 235 255 220 235 255 220 235 255 220 235 255 220 235 255 220 235 255 220 235 255 220 235 255 220 235 255 220 235 255 220 235 255 220 235 255 220 235 255 220 235 255 220 235 255 220 235 255 220 235 255 220 235 255 220 235 255 220 235 255 220 235 255 220 235 255 220 235 255 220 235 255 220 235 255 220 235 255 220 235 255 220 235 255 220 235 255 220 235 255 220 235 255 220 235 255 220 235 255 220 235 255 220 235 255 220 235 255 220 235 255 220 235 255 220 235 255 220 235 255 220 235 255 220 235 255 220 235 255 220 235 255 220 235 255 220 235 255 220 235 255 220 235 255 220 235 255 220 235 255 220 235 255 220 235 255 220 235 255 220 235 255 220 235 255 220 235 255 220 235 255 220 235 255 220 235 255 220 235 255 220 235 255 220 235 255 220 235 255 220 235 255 220 235 255 220 235 255 220 235 255 220 235 255 220 235 255 220 235 255 220 235 255 220 235 255 220 235 255 220 235 255 220 235 255 220 235 255 220 235 255 220 235 255 220 235 255 220 235 255 220 235 255 220 235 255 220 235 255 220 235 255 220 235 255 220 235 255 220 235 255 220 235 255 220 235 255 220 235 255 220 235 255 220 235 255 220 235 255 220 235 255 220 235 255 220 235 255 220 235 255 220 235 255 220 235 255 220 235 255 220 235 255 220 235 255 220 235 255 220 235 255 220 235 255 220 235 255 220 235 255 220 235 255 220 235 255 220 235 255 220 235 255 220 235 255 220 235 255 220 235 255 220 235 255 220 235 255 220 235 255 220 235 255 220 235 255 220 235 255 220 235 255 220 235 255 220 235 255 220 235 255 220 235 255 220 235 255 220 235 255 220 235 255 220 235 255 220 235 255 220 235 255 220 235 255 220 235 255 220 235 255 220 235 255 220 235 255 220 235 255 220 235 255 220 235 255 220 235 255 220 235 255 220 235 255 220 235 255 220 235 255 220 235 255 220 235 255 220 235 255 220 235 255 220 235 255 220 235 255 220 235 255 220 235 255 220 235 255 220 235 255 220 235 255 220 235 255 220 235 255 220 235 255 220 235 255 220 235 255 220 235 255 220 235 255 220 235 255 220 235 255 220 235 255 220 235 255 220 235 255 220 235 255 220 235 255 220 235 255 220 235 255 220 235 255 220 235 255 220 235 255 220 235 255 220 235 255 220 235 255 220 235 255 220 235 255 220 235 255 220 235 255 220 235 255 220 235 255 220 235 255 220 235 255 220 235 255 220 235 255 220 235 255 220 235 255 220 235 255 220 235 255 220 235 255 220 235 255 220 235 255 220 235 255 220 235 255 220 235 255 220 235 255 220 235 255 220 235 255 220 235 255 220 235 255 220 235 255 220 235 255 220 235 255 220 235 255 220 235 255 220 235 255 220 235 255 220 235 255 220 235 255 220 235 255 220 235 255 220 235 255 220 235 255 220 235 255 220 235 255 220 235 255 220 235 255 220 235 255 220 235 255 220 235 255 220 235 255 220 235 255 220 235 255 220 235 255 220 235 255 220 235 255 220 235 255 220 235 255 220 235 255 220 235 255 220 235 255 220 235 255 220 235 255 220 235 255 220 235 255 220 235 255 220 235 255 220 235 255 220 235 255 220 235 255 220 235 255 220 235 255 220 235 255 220 235 255 220 235 255 220 235 255 220 235 255 220 235 255 220 235 255 220 235 255 220 235 255 220 235 255 220 235 255 220 235 255 220 235 255 220 235 255 220 235 255 220 235 255 220 235 255 220 235 255 220 235 255 220 235 255 220 235 255 220 235 255 220 235 255 220 235 255 220 235 255 220 235 255 220 235 255 220 235 255 220 235 255 220 235 255 220 235 255 220 235 255 220 235 255 220 235 255 220 235 255 220 235 255 220 235 255 220 235 255 220 235 255 220 235 255 220 235 255 220 235 255 220 235 255 220 235 255 220 235 255 220 235 255 220 235 255 220 235 255 220 235 255 220 235 255 220 235 255 220 235 255 220 235 255 220 235 255 220 235 255 220 235 255 220 235 255 220 235 255 220 235 255 220 235 255 220 235 255 220 235 255 220 235 255 220 235 255 220 235 255 220 235 255 220 235 255 220 235 255 220 235 255 220 235 255 220 235 255 220 235 255 220 235 255 220 235 255 220 235 255 220 235 255 220 235 255 220 235 255 220 235 255 220 235 255 220 235 255 220 235 255 220 235 255 220 235 255 220 235 255 220 235 255 220 235 255 220 235 255 220 235 255 220 235 255 220 235 255 220 235 255 220 235 255 220 235 255 220 235 255 220 235 255 220 235 255 220 235 255 220 235 255 220 235 255 220 235 255 220 235 255 220 235 255 220 235 255 220 235 255 220 235 255 220 235 255 220 235 255 220 235 255 220 235 255 220 235 255 220 235 255 220 235 255 220 235 255 220 235 255 220 235 255 220 235 255 220 235 255 220 235 255 220 235 255 220 235 255 220 235 255 220 235 255 220 235 255 220 235 255 220 235 255 220 235 255 220 235 255 220 235 255 220 235 255 220 235 255 220 235 255 220 235 255 220 235 255 220 235 255 220 235 255 220 235 255 220 235 255 220 235 255 220 235 255 220 235 255 220 235 255 220 235 255 220 235 255 220 235 255 220 235 255 220 235 255 220 235 255 220 235 255 220 235 255 220 235 255 220 235 255 220 235 255 220 235 255 220 235 255 220 235 255 220 235 255 220 235 255 220 235 255 220 235 255 220 235 255 220 235 255 220 235 255 220 235 255 220 235 255 220 235 255 220 235 255 220 235 255 220 235 255 220 235 255 220 235 255 220 235 255 220 235 255 220 235 255 220 235 255 220 235 255 220 235 255 220 235 255 220 235 255 220 235 255 220 235 255 220 235 255 220 235 255 220 235 255 220 235 255 220 235 255 220 235 255 220 235 255 220 235 255 220 235 255 220 235 255 220 235 255 220 235 255 220 235 255 220 235 255 220 235 255 220 235 255 220 235 255 220 235 255 220 235 255 220 235 255 220 235 255 220 235 255 220 235 255 220 235 255 220 235 255 220 235 255 220 235 255 220 235 255 220 235 255 220 235 255 220 235 255 220 235 255 220 235 255 220 235 255 220 235 255 220 235 255 220 235 255 220 235 255 220 235 255 220 235 255 220 235 255 220 235 255 220 235 255 220 235 255 220 235 255 220 235 255 220 235 255 220 235 255 220 235 255 220 235 255 220 235 255 220 235 255 220 235 255 220 235 255 220 235 255 220 235 255 220 235 255 220 235 255 220 235 255 220 235 255 220 235 255 220 235 255 220 235 255 220 235 255 220 235 255 220 235 255 220 235 255 220 235 255 220 235 255 220 235 255 220 235 255 220 235 255 220 235 255 220 235 255 220 235 255 220 235 255 220 235 255 220 235 255 220 235 255 220 235 255 220 235 255 220 235 255 220 235 255 220 235 255 220 235 255 220 235 255 220 235 255 220 235 255 220 235 255 220 235 255 220 235 255 220 235 255 220 235 255 220 235 255 220 235 255 220 235 255 220 235 255 220 235 255 220 235 255 220 235 255 220 235 255 220 235 255 220 235 255 220 235 255 220 235 255 220 235 255 220 235 255 220 235 255 220 235 255 220 235 255 220 235 255 220 235 255 220 235 255 220 235 255 220 235 255 220 235 255 220 235 255 220 235 255 220 235 255 220 235 255 220 235 255 220 235 255 220 235 255 220 235 255 220 235 255 220 235 255 220 235 255 220 235 255 220 235 255 220 235 255 220 235 255 220 235 255 220 235 255 220 235 255 220 235 255 220 235 255 220 235 255 220 235 255 220 235 255 220 235 255 220 235 255 220 235 255 220 235 255 220 235 255 220 235 255 220 235 255 220 235 255 220 235 255 220 235 255 220 235 255 220 235 255 220 235 255 220 235 255 220 235 255 220 235 255 220 235 255 220 235 255 220 235 255 220 235 255 220 235 255 220 235 255 220 235 255 220 235 255 220 235 255 220 235 255 220 235 255 220 235 255 220 235 255 220 235 255 220 235 255 220 235 255 220 235 255 220 235 255 220 235 255 220 235 255 220 235 255 220 235 255 220 235 255 220 235 255 220 235 255 220 235 255 220 235 255 220 235 255 220 235 255 220 235 255 220 235 255 220 235 255 220 235 255 220 235 255 220 235 255 220 235 255 220 235 255 220 235 255 220 235 255 220 235 255 220 235 255 220 235 255 220 235 255 220 235 255 220 235 255 220 235 255 220 235 255 220 235 255 220 235 255 220 235 255 220 235 255 220 235 255 220 235 255 220 235 255 220 235 255 220 235 255 220 235 255 220 235 255 220 235 255 220 235 255 220 235 255 220 235 255 220 235 255 220 235 255 220 235 255 220 235 255 220 235 255 220 235 255 220 235 255 220 235 255 220 235 255 220 235 255 220 235 255 220 235 255 220 235 255 220 235 255 220 235 255 220 235 255 220 235 255 220 235 255 220 235 255 220 235 255 220 235 255 220 235 255 220 235 255 220 235 255 220 235 255 220 235 255 220 235 255 220 235 255 220 235 255 220 235 255 220 235 255 220 235 255 220 235 255 220 235 255 220 235 255 220 235 255 220 235 255 220 235 255 220 235 255 220 235 255 220 235 255 220 235 255 220 235 255 220 235 255 220 235 255 220 235 255 220 235 255 220 235 255 220 235 255 220 235 255 220 235 255 220 235 255 220 235 255 220 235 255 220 235 255 220 235 255 220 235 255 220 235 255 220 235 255 220 235 255 220 235 255 220 235 255 220 235 255 220 235 255 220 235 255 220 235 255 220 235 255 220 235 255 220 235 255 220 235 255 220 235 255 220 235 255 220 235 255 220 235 255 220 235 255 220 235 255 220 235 255 220 235 255 220 235 255 220 235 255 220 235 255 220 235 255 220 235 255 220 235 255 220 235 255 220 235 255 220 235 255 220 235 255 220 235 255 220 235 255 220 235 255 220 235 255 220 235 255 220 235 255 220 235 255 220 235 255 220 235 255 220 235 255 220 235 255 220 235 255 220 235 255 220 235 255 220 235 255 220 235 255 220 235 255 220 235 255 220 235 255 220 235 255 220 235 255 220 235 255 220 235 255 220 235 255 220 235 255 220 235 255 220 235 255 220 235 255 220 235 255 220 235 255 220 235 255 220 235 255 220 235 255 220 235 255 220 235 255 220 235 255 220 235 255 220 235 255 220 235 255 220 235 255 220 235 255 220 235 255 220 235 255 220 235 255 220 235 255 220 235 255 220 235 255 220 235 255 220 235 255 220 235 255 220 235 255 220 235 255 220 235 255 220 235 255 220 235 255 220 235 255 220 235 255 220 235 255 220 235 255 220 235 255 220 235 255 220 235 255 220 235 255 220 235 255 220 235 255 220 235 255 220 235 255 220 235 255 220 235 255 220 235 255 220 235 255 220 235 255 220 235 255 220 235 255 220 235 255 220 235 255 220 235 255 220 235 255 220 235 255 220 235 255 220 235 255 220 235 255 220 235 255 220 235 255 220 235 255 220 235 255 220 235 255 220 235 255 220 235 255 220 235 255 220 235 255 220 235 255 220 235 255 220 235 255 220 235 255 220 235 255 220 235 255 220 235 255 220 235 255 220 235 255 220 235 255 220 235 255 220 235 255 220 235 255 220 235 255 220 235 255 220 235 255 220 235 255 220 235 255 220 235 255 220 235 255 220 235 255 220 235 255 220 235 255 220 235 255 220 235 255 220 235 255 220 235 255 220 235 255 220 235 255 220 235 255 220 235 255 220 235 255 220 235 255 220 235 255 220 235 255 220 235 255 220 235 255 220 235 255 220 235 255 220 235 255 220 235 255 220 235 255 220 235 255 220 235 255 220 235 255 220 235 255 220 235 255 220 235 255 220 235 255 220 235 255 220 235 255 220 235 255 220 235 255 220 235 255 220 235 255 220 235 255 220 235 255 220 235 255 220 235 255 220 235 255 220 235 255 220 235 255 220 235 255 220 235 255 220 235 255 220 235 255 220 235 255 220 235 255 220 235 255 220 235 255 220 235 255 220 235 255 220 235 255 220 235 255 220 235 255 220 235 255 220 235 255 220 235 255 220 235 255 220 235 255 220 235 255 220 235 255 220 235 255 220 235 255 220 235 255 220 235 255 220 235 255 220 235 255 220 235 255 220 235 255 220 235 255 220 235 255 220 235 255 220 235 255 220 235 255 220 235 255 220 235 255 220 235 255 220 235 255 220 235 255 220 235 255 220 235 255 220 235 255 220 235 255 220 235 255 220 235 255 220 235 255 220 235 255 220 235 255 220 235 255 220 235 255 220 235 255 220 235 255 220 235 255 220 235 255 220 235 255 220 235 255 220 235 255 220 235 255 220 235 255 220 235 255 220 235 255 220 235 255 220 235 255 220 235 255 220 235 255 220 235 255 220 235 255 220 235 255 220 235 255 220 235 255 220 235 255 220 235 255 220 235 255 220 235 255 220 235 255 220 235 255 220 235 255 220 235 255 220 235 255 220 235 255 220 235 255 220 235 255 220 235 255 220 235 255 220 235 255 220 235 255 220 235 255 220 235 255 220 235 255 220 235 255 220 235 255 220 235 255 220 235 255 220 235 255 220 235 255 220 235 255 220 235 255 220 235 255 220 235 255 220 235 255 220 235 255 220 235 255 220 235 255 220 235 255 220 235 255 220 235 255 220 235 255 220 235 255 220 235 255 220 235 255 220 235 255 220 235 255 220 235 255 220 235 255 220 235 255 220 235 255 220 235 255 220 235 255 220 235 255 220 235 255 220 235 255 220 235 255 220 235 255 220 235 255 220 235 255 220 235 255 220 235 255 220 235 255 220 235 255 220 235 255 220 235 255 220 235 255 220 235 255 220 235 255 220 235 255 220 235 255 220 235 255 220 235 255 220 235 255 220 235 255 220 235 255 220 235 255 220 235 255 220 235 255 220 235 255 220 235 255 220 235 255 220 235 255 220 235 255 220 235 255 220 235 255 220 235 255 220 235 255 220 235 255 220 235 255 220 235 255 220 235 255 220 235 255 220 235 255 220 235 255 220 235 255 220 235 255 220 235 255 220 235 255 220 235 255 220 235 255 220 235 255 220 235 255 220 235 255 220 235 255 220 235 255 220 235 255 220 235 255 220 235 255 220 235 255 220 235 255 220 235 255 220 235 255 220 235 255 220 235 255 220 235 255 220 235 255 220 235 255 220 235 255 220 235 255 220 235 255 220 235 255 220 235 255 220 235 255 220 235 255 220 235 255 220 235 255 220 235 255 220 235 255 220 235 255 220 235 255 220 235 255 220 235 255 220 235 255 220 235 255 220 235 255 220 235 255 220 235 255 220 235 255 220 235 255 220 235 255 220 235 255 220 235 255 220 235 255 220 235 255 220 235 255 220 235 255 220 235 255 220 235 255 220 235 255 220 235 255 220 235 255 220 235 255 220 235 255 220 235 255 220 235 255 220 235 255 220 235 255 220 235 255 220 235 255 220 235 255 220 235 255 220 235 255 220 235 255 220 235 255 220 235 255 220 235 255 220 235 255 220 235 255 220 235 255 220 235 255 220 235 255 220 235 255 220 235 255 220 235 255 220 235 255 220 235 255 220 235 255 220 235 255 220 235 255 220 235 255 220 235 255 220 235 255 220 235 255 220 235 255 220 235 255 220 235 255 220 235 255 220 235 255 220 235 255 220 235 255 220 235 255 220 235 255 220 235 255 220 235 255 220 235 255 220 235 255 220 235 255 220 235 255 220 235 255 220 235 255 
220 235 255 220 235 255 220 235 255 220 235 255 220 235 255 220 235 255 220 235 255 220 235 255 220 235 255 220 235 255 220 235 255 220 235 255 220 235 255 220 235 255 220 235 255 220 235 255 220 235 255 220 235 255 220 235 255 220 235 255 220 235 255 220 235 255 220 235 255 220 235 255 220 235 255 220 235 255 220 235 255 220 235 255 220 235 255 220 235 255 220 235 255 220 235 255 220 235 255 220 235 255 220 235 255 220 235 255 220 235 255 220 235 255 220 235 255 220 235 255 220 235 255 220 235 255 220 235 255 220 235 255 220 235 255 220 235 255 220 235 255 220 235 255 220 235 255 220 235 255 220 235 255 220 235 255 220 235 255 220 235 255 220 235 255 220 235 255 220 235 255 220 235 255 220 235 255 220 235 255 220 235 255 220 235 255 220 235 255 220 235 255 220 235 255 220 235 255 220 235 255 220 235 255 220 235 255 220 235 255 220 235 255 220 235 255 220 235 255 220 235 255 220 235 255 220 235 255 220 235 255 220 235 255 220 235 255 220 235 255 220 235 255 220 235 255 220 235 255 220 235 255 220 235 255 220 235 255 220 235 255 220 235 255 220 235 255 220 235 255 220 235 255 220 235 255 220 235 255 220 235 255 220 235 255 220 235 255 220 235 255 220 235 255 220 235 255 220 235 255 220 235 255 220 235 255 220 235 255 220 235 255 220 235 255 220 235 255 220 235 255 220 235 255 220 235 255 220 235 255 220 235 255 220 235 255 220 235 255 220 235 255 220 235 255 220 235 255 220 235 255 220 235 255 220 235 255 220 235 255 220 235 255 220 235 255 220 235 255 220 235 255 220 235 255 220 235 255 220 235 255 220 235 255 220 235 255 220 235 255 220 235 255 220 235 255 220 235 255 220 235 255 220 235 255 220 235 255 220 235 255 220 235 255 220 235 255 220 235 255 220 235 255 220 235 255 220 235 255 220 235 255 220 235 255 220 235 255 220 235 255 220 235 255 220 235 255 220 235 255 220 235 255 220 235 255 220 235 255 220 235 255 220 235 255 220 235 255 220 235 255 220 235 255 220 235 255 220 235 255 220 235 255 220 235 255 220 235 255 220 235 255 220 235 255 220 235 255 220 235 255 220 235 255 220 235 255 220 235 255 220 235 255 220 235 255 220 235 255 220 235 255 220 235 255 220 235 255 220 235 255 220 235 255 220 235 255 220 235 255 220 235 255 220 235 255 220 235 255 220 235 255 220 235 255 220 235 255 220 235 255 220 235 255 220 235 255 220 235 255 220 235 255 220 235 255 220 235 255 220 235 255 220 235 255 220 235 255 220 235 255 220 235 255 220 235 255 220 235 255 220 235 255 220 235 255 220 235 255 220 235 255 220 235 255 220 235 255 220 235 255 220 235 255 220 235 255 220 235 255 220 235 255 220 235 255 220 235 255 220 235 255 220 235 255 220 235 255 220 235 255 220 235 255 220 235 255 220 235 255 220 235 255 220 235 255 220 235 255 220 235 255 220 235 255 220 235 255 220 235 255 220 235 255 220 235 255 220 235 255 220 235 255 220 235 255 220 235 255 220 235 255 220 235 255 220 235 255 220 235 255 220 235 255 220 235 255 220 235 255 220 235 255 220 235 255 220 235 255 220 235 255 220 235 255 220 235 255 220 235 255 220 235 255 220 235 255 220 235 255 220 235 255 220 235 255 220 235 255 220 235 255 220 235 255 220 235 255 220 235 255 220 235 255 220 235 255 220 235 255 220 235 255 220 235 255 220 235 255 220 235 255 220 235 255 220 235 255 220 235 255 220 235 255 220 235 255 220 235 255 220 235 255 220 235 255 220 235 255 220 235 255 220 235 255 220 235 255 220 235 255 220 235 255 220 235 255 220 235 255 220 235 255 220 235 255 220 235 255 220 235 255 220 235 255 220 235 255 220 235 255 220 235 255 220 235 255 220 235 255 220 235 255 220 235 255 220 235 255 220 235 255 220 235 255 220 235 255 220 235 255 220 235 255 220 235 255 220 235 255 220 235 255 220 235 255 220 235 255 220 235 255 220 235 255 220 235 255 220 235 255 220 235 255 220 235 255 220 235 255 220 235 255 220 235 255 220 235 255 220 235 255 220 235 255 220 235 255 220 235 255 220 235 255 220 235 255 220 235 255 220 235 255 220 235 255 220 235 255 220 235 255 220 235 255 220 235 255 220 235 255 220 235 255 220 235 255 220 235 255 220 235 255 220 235 255 220 235 255 220 235 255 220 235 255 220 235 255 220 235 255 220 235 255 220 235 255 220 235 255 220 235 255 220 235 255 220 235 255 220 235 255 220 235 255 220 235 255 220 235 255 220 235 255 220 235 255 220 235 255 220 235 255 220 235 255 220 235 255 220 235 255 220 235 255 220 235 255 220 235 255 220 235 255 220 235 255 220 235 255 220 235 255 220 235 255 220 235 255 220 235 255 220 235 255 220 235 255 220 235 255 220 235 255 220 235 255 220 235 255 220 235 255 220 235 255 220 235 255 220 235 255 220 235 255 220 235 255 220 235 255 220 235 255 220 235 255 220 235 255 220 235 255 220 235 255 220 235 255 220 235 255 220 235 255 220 235 255 220 235 255 220 235 255 220 235 255 220 235 255 220 235 255 220 235 255 220 235 255 220 235 255 220 235 255 220 235 255 220 235 255 220 235 255 220 235 255 220 235 255 220 235 255 220 235 255 220 235 255 220 235 255 220 235 255 220 235 255 220 235 255 220 235 255 220 235 255 220 235 255 220 235 255 220 235 255 220 235 255 220 235 255 220 235 255 220 235 255 220 235 255 220 235 255 220 235 255 220 235 255 220 235 255 220 235 255 220 235 255 220 235 255 220 235 255 220 235 255 220 235 255 220 235 255 220 235 255 220 235 255 220 235 255 220 235 255 220 235 255 220 235 255 220 235 255 220 235 255 220 235 255 220 235 255 220 235 255 220 235 255 220 235 255 220 235 255 220 235 255 220 235 255 220 235 255 220 235 255 220 235 255 220 235 255 220 235 255 220 235 255 220 235 255 220 235 255 220 235 255 220 235 255 220 235 255 220 235 255 220 235 255 220 235 255 220 235 255 220 235 255 220 235 255 220 235 255 220 235 255 220 235 255 220 235 255 220 235 255 220 235 255 220 235 255 220 235 255 220 235 255 220 235 255 220 235 255 220 235 255 220 235 255 220 235 255 220 235 255 220 235 255 220 235 255 220 235 255 220 235 255 220 235 255 220 235 255 220 235 255 220 235 255 220 235 255 220 235 255 220 235 255 220 235 255 220 235 255 220 235 255 220 235 255 220 235 255 220 235 255 220 235 255 220 235 255 220 235 255 220 235 255 220 235 255 220 235 255 220 235 255 220 235 255 220 235 255 220 235 255 220 235 255 220 235 255 220 235 255 220 235 255 220 235 255 220 235 255 220 235 255 220 235 255 220 235 255 220 235 255 220 235 255 220 235 255 220 235 255 220 235 255 220 235 255 220 235 255 220 235 255 220 235 255 220 235 255 220 235 255 220 235 255 220 235 255 220 235 255 220 235 255 220 235 255 220 235 255 220 235 255 220 235 255 220 235 255 220 235 255 220 235 255 220 235 255 220 235 255 220 235 255 220 235 255 220 235 255 220 235 255 220 235 255 220 235 255 220 235 255 220 235 255 220 235 255 220 235 255 220 235 255 220 235 255 220 235 255 220 235 255 220 235 255 220 235 255 220 235 255 220 235 255 220 235 255 220 235 255 220 235 255 220 235 255 220 235 255 220 235 255 220 235 255 220 235 255 220 235 255 220 235 255 220 235 255 220 235 255 220 235 255 220 235 255 220 235 255 220 235 255 220 235 255 220 235 255 220 235 255 220 235 255 220 235 255 220 235 255 220 235 255 220 235 255 220 235 255 220 235 255 220 235 255 220 235 255 220 235 255 220 235 255 220 235 255 220 235 255 220 235 255 220 235 255 220 235 255 220 235 255 220 235 255 220 235 255 220 235 255 220 235 255 220 235 255 220 235 255 220 235 255 220 235 255 220 235 255 220 235 255 220 235 255 220 235 255 220 235 255 220 235 255 220 235 255 220 235 255 220 235 255 220 235 255 220 235 255 220 235 255 220 235 255 220 235 255 220 235 255 220 235 255 220 235 255 220 235 255 220 235 255 220 235 255 220 235 255 220 235 255 220 235 255 220 235 255 220 235 255 220 235 255 220 235 255 220 235 255 220 235 255 220 235 255 220 235 255 220 235 255 220 235 255 220 235 255 220 235 255 220 235 255 220 235 255 220 235 255 220 235 255 220 235 255 220 235 255 220 235 255 220 235 255 220 235 255 220 235 255 220 235 255 220 235 255 220 235 255 220 235 255 220 235 255 220 235 255 220 235 255 220 235 255 220 235 255 220 235 255 220 235 255 220 235 255 220 235 255 220 235 255 220 235 255 220 235 255 220 235 255 220 235 255 220 235 255 220 235 255 220 235 255 220 235 255 220 235 255 220 235 255 220 235 255 220 235 255 220 235 255 220 235 255 220 235 255 220 235 255 220 235 255 220 235 255 220 235 255 220 235 255 220 235 255 220 235 255 220 235 255 220 235 255 220 235 255 220 235 255 220 235 255 220 235 255 220 235 255 220 235 255 220 235 255 220 235 255 220 235 255 220 235 255 220 235 255 220 235 255 220 235 255 220 235 255 220 235 255 220 235 255 220 235 255 220 235 255 220 235 255 220 235 255 220 235 255 220 235 255 220 235 255 220 235 255 220 235 255 220 235 255 220 235 255 220 235 255 220 235 255 220 235 255 220 235 255 220 235 255 220 235 255 220 235 255 220 235 255 220 235 255 220 235 255 220 235 255 220 235 255 220 235 255 220 235 255 220 235 255 220 235 255 220 235 255 220 235 255 220 235 255 220 235 255 220 235 255 220 235 255 220 235 255 220 235 255 220 235 255 220 235 255 220 235 255 220 235 255 220 235 255 220 235 255 220 235 255 220 235 255 220 235 255 220 235 255 220 235 255 220 235 255 220 235 255 220 235 255 220 235 255 220 235 255 220 235 255 220 235 255 220 235 255 220 235 255 220 235 255 220 235 255 220 235 255 220 235 255 220 235 255 220 235 255 220 235 255 220 235 255 220 235 255 220 235 255 220 235 255 220 235 255 220 235 255 220 235 255 220 235 255 220 235 255 220 235 255 220 235 255 220 235 255 220 235 255 220 235 255 220 235 255 220 235 255 220 235 255 220 235 255 220 235 255 220 235 255 220 235 255 220 235 255 220 235 255 220 235 255 220 235 255 220 235 255 220 235 255 220 235 255 220 235 255 220 235 255 220 235 255 220 235 255 220 235 255 220 235 255 220 235 255 220 235 255 220 235 255 220 235 255 220 235 255 220 235 255 220 235 255 220 235 255 220 235 255 220 235 255 220 235 255 220 235 255 220 235 255 220 235 255 220 235 255 220 235 255 220 235 255 220 235 255 220 235 255 220 235 255 220 235 255 220 235 255 220 235 255 220 235 255 220 235 255 220 235 255 220 235 255 220 235 255 220 235 255 220 235 255 220 235 255 220 235 255 220 235 255 220 235 255 220 235 255 220 235 255 220 235 255 220 235 255 220 235 255 220 235 255 220 235 255 220 235 255 220 235 255 220 235 255 220 235 255 220 235 255 220 235 255 220 235 255 220 235 255 220 235 255 220 235 255 220 235 255 220 235 255 220 235 255 220 235 255 220 235 255 220 235 255 220 235 255 220 235 255 220 235 255 220 235 255 220 235 255 220 235 255 220 235 255 220 235 255 220 235 255 220 235 255 220 235 255 220 235 255 220 235 255 220 235 255 220 235 255 220 235 255 220 235 255 220 235 255 220 235 255 220 235 255 220 235 255 220 235 255 220 235 255 220 235 255 220 235 255 220 235 255 220 235 255 220 235 255 220 235 255 220 235 255 220 235 255 220 235 255 220 235 255 220 235 255 220 235 255 220 235 255 220 235 255 220 235 255 220 235 255 220 235 255 220 235 255 220 235 255 220 235 255 220 235 255 220 235 255 220 235 255 220 235 255 220 235 255 220 235 255 220 235 255 220 235 255 220 235 255 220 235 255 220 235 255 220 235 255 220 235 255 220 235 255 220 235 255 220 235 255 220 235 255 220 235 255 220 235 255 220 235 255 220 235 255 220 235 255 220 235 255 220 235 255 220 235 255 220 235 255 220 235 255 220 235 255 220 235 255 220 235 255 220 235 255 220 235 255 220 235 255 220 235 255 220 235 255 220 235 255 220 235 255 220 235 255 220 235 255 220 235 255 220 235 255 220 235 255 220 235 255 220 235 255 220 235 255 220 235 255 220 235 255 220 235 255 220 235 255 220 235 255 220 235 255 220 235 255 220 235 255 220 235 255 220 235 255 220 235 255 220 235 255 220 235 255 220 235 255 220 235 255 220 235 255 220 235 255 220 235 255 220 235 255 220 235 255 220 235 255 220 235 255 220 235 255 220 235 255 220 235 255 220 235 255 220 235 255 220 235 255 220 235 255 220 235 255 220 235 255 220 235 255 220 235 255 220 235 255 220 235 255 220 235 255 220 235 255 220 235 255 220 235 255 220 235 255 220 235 255 220 235 255 220 235 255 220 235 255 220 235 255 220 235 255 220 235 255 220 235 255 220 235 255 220 235 255 220 235 255 220 235 255 220 235 255 220 235 255 220 235 255 220 235 255 220 235 255 220 235 255 220 235 255 220 235 255 220 235 255 220 235 255 220 235 255 220 235 255 220 235 255 220 235 255 220 235 255 220 235 255 220 235 255 220 235 255 220 235 255 220 235 255 220 235 255 220 235 255 220 235 255 220 235 255 220 235 255 220 235 255 220 235 255 220 235 255 220 235 255 220 235 255 220 235 255 220 235 255 220 235 255 220 235 255 220 235 255 220 235 255 220 235 255 220 235 255 220 235 255 220 235 255 220 235 255 220 235 255 220 235 255 220 235 255 220 235 255 220 235 255 220 235 255 220 235 255 220 235 255 220 235 255 220 235 255 220 235 255 220 235 255 220 235 255 220 235 255 220 235 255 220 235 255 220 235 255 220 235 255 220 235 255 220 235 255 220 235 255 220 235 255 220 235 255 220 235 255 220 235 255 220 235 255 220 235 255 220 235 255 220 235 255 220 235 255 220 235 255 220 235 255 220 235 255 220 235 255 220 235 255 220 235 255 220 235 255 220 235 255 220 235 255 220 235 255 220 235 255 220 235 255 220 235 255 220 235 255 220 235 255 220 235 255 220 235 255 220 235 255 220 235 255 220 235 255 220 235 255 220 235 255 220 235 255 220 235 255 220 235 255 220 235 255 220 235 255 220 235 255 220 235 255 220 235 255 220 235 255 220 235 255 220 235 255 220 235 255 220 235 255 220 235 255 220 235 255 220 235 255 220 235 255 220 235 255 220 235 255 220 235 255 220 235 255 220 235 255 220 235 255 220 235 255 220 235 255 220 235 255 220 235 255 220 235 255 220 235 255 220 235 255 220 235 255 220 235 255 220 235 255 220 235 255 220 235 255 220 235 255 220 235 255 220 235 255 220 235 255 220 235 255 220 235 255 220 235 255 220 235 255 220 235 255 220 235 255 220 235 255 220 235 255 220 235 255 220 235 255 220 235 255 220 235 255 220 235 255 220 235 255 220 235 255 220 235 255 220 235 255 220 235 255 220 235 255 220 235 255 220 235 255 220 235 255 220 235 255 220 235 255 220 235 255 220 235 255 220 235 255 220 235 255 220 235 255 220 235 255 220 235 255 220 235 255 220 235 255 220 235 255 220 235 255 220 235 255 220 235 255 220 235 255 220 235 255 220 235 255 220 235 255 220 235 255 220 235 255 220 235 255 220 235 255 220 235 255 220 235 255 220 235 255 220 235 255 220 235 255 220 235 255 220 235 255 220 235 255 220 235 255 220 235 255 220 235 255 220 235 255 220 235 255 220 235 255 220 235 255 220 235 255 220 235 255 220 235 255 220 235 255 220 235 255 220 235 255 220 235 255 220 235 255 220 235 255 220 235 255 220 235 255 220 235 255 220 235 255 220 235 255 220 235 255 220 235 255 220 235 255 220 235 255 220 235 255 220 235 255 220 235 255 220 235 255 220 235 255 220 235 255 220 235 255 220 235 255 220 235 255 220 235 255 220 235 255 220 235 255 220 235 255 220 235 255 220 235 255 220 235 255 220 235 255 220 235 255 220 235 255 220 235 255 220 235 255 220 235 255 220 235 255 220 235 255 220 235 255 220 235 255 220 235 255 220 235 255 220 235 255 220 235 255 220 235 255 220 235 255 220 235 255 220 235 255 220 235 255 220 235 255 220 235 255 220 235 255 220 235 255 220 235 255 220 235 255 220 235 255 220 235 255 220 235 255 220 235 255 220 235 255 220 235 255 220 235 255 220 235 255 220 235 255 220 235 255 220 235 255 220 235 255 220 235 255 220 235 255 220 235 255 220 235 255 220 235 255 220 235 255 220 235 255 220 235 255 220 235 255 220 235 255 220 235 255 220 235 255 220 235 255 220 235 255 220 235 255 220 235 255 220 235 255 220 235 255 220 235 255 220 235 255 220 235 255 220 235 255 220 235 255 220 235 255 220 235 255 220 235 255 220 235 255 
220 235 255 220 235 255 220 235 255 220 235 255 220 235 255 220 235 255 220 235 255 220 235 255 220 235 255 220 235 255 220 235 255 220 235 255 220 235 255 220 235 255 220 235 255 220 235 255 220 235 255 220 235 255 220 235 255 220 235 255 220 235 255 220 235 255 220 235 255 220 235 255 220 235 255 220 235 255 220 235 255 220 235 255 220 235 255 220 235 255 220 235 255 220 235 255 220 235 255 220 235 255 220 235 255 220 235 255 220 235 255 220 235 255 220 235 255 220 235 255 220 235 255 220 235 255 220 235 255 220 235 255 220 235 255 220 235 255 220 235 255 220 235 255 220 235 255 220 235 255 220 235 255 220 235 255 220 235 255 220 235 255 220 235 255 220 235 255 220 235 255 220 235 255 220 235 255 220 235 255 220 235 255 220 235 255 220 235 255 220 235 255 220 235 255 220 235 255 220 235 255 220 235 255 220 235 255 220 235 255 220 235 255 220 235 255 220 235 255 220 235 255 220 235 255 220 235 255 220 235 255 220 235 255 220 235 255 220 235 255 220 235 255 220 235 255 220 235 255 220 235 255 220 235 255 220 235 255 220 235 255 220 235 255 220 235 255 220 235 255 220 235 255 220 235 255 220 235 255 220 235 255 220 235 255 220 235 255 220 235 255 220 235 255 220 235 255 220 235 255 220 235 255 220 235 255 220 235 255 220 235 255 220 235 255 220 235 255 220 235 255 220 235 255 220 235 255 220 235 255 220 235 255 220 235 255 220 235 255 220 235 255 220 235 255 220 235 255 220 235 255 220 235 255 220 235 255 220 235 255 220 235 255 220 235 255 220 235 255 220 235 255 220 235 255 220 235 255 220 235 255 220 235 255 220 235 255 220 235 255 220 235 255 220 235 255 220 235 255 220 235 255 220 235 255 220 235 255 220 235 255 220 235 255 220 235 255 220 235 255 220 235 255 220 235 255 220 235 255 220 235 255 220 235 255 220 235 255 220 235 255 220 235 255 220 235 255 220 235 255 220 235 255 220 235 255 220 235 255 220 235 255 220 235 255 220 235 255 220 235 255 220 235 255 220 235 255 220 235 255 220 235 255 220 235 255 220 235 255 220 235 255 220 235 255 220 235 255 220 235 255 220 235 255 220 235 255 220 235 255 220 235 255 220 235 255 220 235 255 220 235 255 220 235 255 220 235 255 220 235 255 220 235 255 220 235 255 220 235 255 220 235 255 220 235 255 220 235 255 220 235 255 220 235 255 220 235 255 220 235 255 220 235 255 220 235 255 220 235 255 220 235 255 220 235 255 220 235 255 220 235 255 220 235 255 220 235 255 220 235 255 220 235 255 220 235 255 220 235 255 220 235 255 220 235 255 220 235 255 220 235 255 220 235 255 220 235 255 220 235 255 220 235 255 220 235 255 220 235 255 220 235 255 220 235 255 220 235 255 220 235 255 220 235 255 220 235 255 220 235 255 220 235 255 220 235 255 220 235 255 220 235 255 220 235 255 220 235 255 220 235 255 220 235 255 220 235 255 220 235 255 220 235 255 220 235 255 220 235 255 220 235 255 220 235 255 220 235 255 220 235 255 220 235 255 220 235 255 220 235 255 220 235 255 220 235 255 220 235 255 220 235 255 220 235 255 220 235 255 220 235 255 220 235 255 220 235 255 220 235 255 220 235 255 220 235 255 220 235 255 220 235 255 220 235 255 220 235 255 220 235 255 220 235 255 220 235 255 220 235 255 220 235 255 220 235 255 220 235 255 220 235 255 220 235 255 220 235 255 220 235 255 220 235 255 220 235 255 220 235 255 220 235 255 220 235 255 220 235 255 220 235 255 220 235 255 220 235 255 220 235 255 220 235 255 220 235 255 220 235 255 220 235 255 220 235 255 220 235 255 220 235 255 220 235 255 220 235 255 220 235 255 220 235 255 220 235 255 220 235 255 220 235 255 220 235 255 220 235 255 220 235 255 220 235 255 220 235 255 220 235 255 220 235 255 220 235 255 220 235 255 220 235 255 220 235 255 220 235 255 220 235 255 220 235 255 220 235 255 220 235 255 220 235 255 220 235 255 220 235 255 220 235 255 220 235 255 220 235 255 220 235 255 220 235 255 220 235 255 220 235 255 220 235 255 220 235 255 220 235 255 220 235 255 220 235 255 220 235 255 220 235 255 220 235 255 220 235 255 220 235 255 220 235 255 220 235 255 220 235 255 220 235 255 220 235 255 220 235 255 220 235 255 220 235 255 220 235 255 220 235 255 220 235 255 220 235 255 220 235 255 220 235 255 220 235 255 220 235 255 220 235 255 220 235 255 220 235 255 220 235 255 220 235 255 220 235 255 220 235 255 220 235 255 220 235 255 220 235 255 220 235 255 220 235 255 220 235 255 220 235 255 220 235 255 220 235 255 220 235 255 220 235 255 220 235 255 220 235 255 220 235 255 220 235 255 220 235 255 220 235 255 220 235 255 220 235 255 220 235 255 220 235 255 220 235 255 220 235 255 220 235 255 220 235 255 220 235 255 220 235 255 220 235 255 220 235 255 220 235 255 220 235 255 220 235 255 220 235 255 220 235 255 220 235 255 220 235 255 220 235 255 220 235 255 220 235 255 220 235 255 220 235 255 220 235 255 220 235 255 220 235 255 220 235 255 220 235 255 220 235 255 220 235 255 220 235 255 220 235 255 220 235 255 220 235 255 220 235 255 220 235 255 220 235 255 220 235 255 220 235 255 220 235 255 220 235 255 220 235 255 220 235 255 220 235 255 220 235 255 220 235 255 220 235 255 220 235 255 220 235 255 220 235 255 220 235 255 220 235 255 220 235 255 220 235 255 220 235 255 220 235 255 220 235 255 220 235 255 220 235 255 220 235 255 220 235 255 220 235 255 220 235 255 220 235 255 220 235 255 220 235 255 220 235 255 220 235 255 220 235 255 220 235 255 220 235 255 220 235 255 220 235 255 220 235 255 220 235 255 220 235 255 220 235 255 220 235 255 220 235 255 220 235 255 220 235 255 220 235 255 220 235 255 220 235 255 220 235 255 220 235 255 220 235 255 220 235 255 220 235 255 220 235 255 220 235 255 220 235 255 220 235 255 220 235 255 220 235 255 220 235 255 220 235 255 220 235 255 220 235 255 220 235 255 220 235 255 220 235 255 220 235 255 220 235 255 220 235 255 220 235 255 220 235 255 220 235 255 220 235 255 220 235 255 220 235 255 220 235 255 220 235 255 220 235 255 220 235 255 220 235 255 220 235 255 220 235 255 220 235 255 220 235 255 220 235 255 220 235 255 220 235 255 220 235 255 220 235 255 220 235 255 220 235 255 220 235 255 220 235 255 220 235 255 220 235 255 220 235 255 220 235 255 220 235 255 220 235 255 220 235 255 220 235 255 220 235 255 220 235 255 220 235 255 220 235 255 220 235 255 220 235 255 220 235 255 220 235 255 220 235 255 220 235 255 220 235 255 220 235 255 220 235 255 220 235 255 220 235 255 220 235 255 220 235 255 220 235 255 220 235 255 220 235 255 220 235 255 220 235 255 220 235 255 220 235 255 220 235 255 220 235 255 220 235 255 220 235 255 220 235 255 220 235 255 220 235 255 220 235 255 220 235 255 220 235 255 220 235 255 220 235 255 220 235 255 220 235 255 220 235 255 220 235 255 220 235 255 220 235 255 220 235 255 220 235 255 220 235 255 220 235 255 220 235 255 220 235 255 220 235 255 220 235 255 220 235 255 220 235 255 220 235 255 220 235 255 220 235 255 220 235 255 220 235 255 220 235 255 220 235 255 220 235 255 220 235 255 220 235 255 220 235 255 220 235 255 220 235 255 220 235 255 220 235 255 220 235 255 220 235 255 220 235 255 220 235 255 220 235 255 220 235 255 220 235 255 220 235 255 220 235 255 220 235 255 220 235 255 220 235 255 220 235 255 220 235 255 220 235 255 220 235 255 220 235 255 220 235 255 220 235 255 220 235 255 220 235 255 220 235 255 220 235 255 220 235 255 220 235 255 220 235 255 220 235 255 220 235 255 220 235 255 220 235 255 220 235 255 220 235 255 220 235 255 220 235 255 220 235 255 220 235 255 220 235 255 220 235 255 220 235 255 220 235 255 220 235 255 220 235 255 220 235 255 220 235 255 220 235 255 220 235 255 220 235 255 220 235 255 220 235 255 220 235 255 220 235 255 220 235 255 220 235 255 220 235 255 220 235 255 220 235 255 220 235 255 220 235 255 220 235 255 220 235 255 220 235 255 220 235 255 220 235 255 220 235 255 220 235 255 220 235 255 220 235 255 220 235 255 220 235 255 220 235 255 220 235 255 220 235 255 220 235 255 220 235 255 220 235 255 220 235 255 220 235 255 220 235 255 220 235 255 220 235 255 220 235 255 220 235 255 220 235 255 220 235 255 220 235 255 220 235 255 220 235 255 220 235 255 220 235 255 220 235 255 220 235 255 220 235 255 220 235 255 220 235 255 220 235 255 220 235 255 220 235 255 220 235 255 220 235 255 220 235 255 220 235 255 220 235 255 220 235 255 220 235 255 220 235 255 220 235 255 220 235 255 220 235 255 220 235 255 220 235 255 220 235 255 220 235 255 220 235 255 220 235 255 220 235 255 220 235 255 220 235 255 220 235 255 220 235 255 220 235 255 220 235 255 220 235 255 220 235 255 220 235 255 220 235 255 220 235 255 220 235 255 220 235 255 220 235 255 220 235 255 220 235 255 220 235 255 220 235 255 220 235 255 220 235 255 220 235 255 220 235 255 220 235 255 220 235 255 220 235 255 220 235 255 220 235 255 220 235 255 220 235 255 220 235 255 220 235 255 220 235 255 220 235 255 220 235 255 220 235 255 220 235 255 220 235 255 220 235 255 220 235 255 220 235 255 220 235 255 220 235 255 220 235 255 220 235 255 220 235 255 220 235 255 220 235 255 220 235 255 220 235 255 220 235 255 220 235 255 220 235 255 220 235 255 220 235 255 220 235 255 220 235 255 220 235 255 220 235 255 220 235 255 220 235 255 220 235 255 220 235 255 220 235 255 220 235 255 220 235 255 220 235 255 220 235 255 220 235 255 220 235 255 220 235 255 220 235 255 220 235 255 220 235 255 220 235 255 220 235 255 220 235 255 220 235 255 220 235 255 220 235 255 220 235 255 220 235 255 220 235 255 220 235 255 220 235 255 220 235 255 220 235 255 220 235 255 220 235 255 220 235 255 220 235 255 220 235 255 220 235 255 220 235 255 220 235 255 220 235 255 220 235 255 220 235 255 220 235 255 220 235 255 220 235 255 220 235 255 220 235 255 220 235 255 220 235 255 220 235 255 220 235 255 220 235 255 220 235 255 220 235 255 220 235 255 220 235 255 220 235 255 220 235 255 220 235 255 220 235 255 220 235 255 220 235 255 220 235 255 220 235 255 220 235 255 220 235 255 220 235 255 220 235 255 220 235 255 220 235 255 220 235 255 220 235 255 220 235 255 220 235 255 220 235 255 220 235 255 220 235 255 220 235 255 220 235 255 220 235 255 220 235 255 220 235 255 220 235 255 220 235 255 220 235 255 220 235 255 220 235 255 220 235 255 220 235 255 220 235 255 220 235 255 220 235 255 220 235 255 220 235 255 220 235 255 220 235 255 220 235 255 220 235 255 220 235 255 220 235 255 220 235 255 220 235 255 220 235 255 220 235 255 220 235 255 220 235 255 220 235 255 220 235 255 220 235 255 220 235 255 220 235 255 220 235 255 220 235 255 220 235 255 220 235 255 220 235 255 220 235 255 220 235 255 220 235 255 220 235 255 220 235 255 220 235 255 220 235 255 220 235 255 220 235 255 220 235 255 220 235 255 220 235 255 220 235 255 220 235 255 220 235 255 220 235 255 220 235 255 220 235 255 220 235 255 220 235 255 220 235 255 220 235 255 220 235 255 220 235 255 220 235 255 220 235 255 220 235 255 220 235 255 220 235 255 220 235 255 220 235 255 220 235 255 220 235 255 220 235 255 220 235 255 220 235 255 220 235 255 220 235 255 220 235 255 220 235 255 220 235 255 220 235 255 220 235 255 220 235 255 220 235 255 220 235 255 220 235 255 220 235 255 220 235 255 220 235 255 220 235 255 220 235 255 220 235 255 220 235 255 220 235 255 220 235 255 220 235 255 220 235 255 220 235 255 220 235 255 220 235 255 220 235 255 220 235 255 220 235 255 220 235 255 220 235 255 220 235 255 220 235 255 220 235 255 220 235 255 220 235 255 220 235 255 220 235 255 220 235 255 220 235 255 220 235 255 220 235 255 220 235 255 220 235 255 220 235 255 220 235 255 220 235 255 220 235 255 220 235 255 220 235 255 220 235 255 220 235 255 220 235 255 220 235 255 220 235 255 220 235 255 220 235 255 220 235 255 220 235 255 220 235 255 220 235 255 220 235 255 220 235 255 220 235 255 220 235 255 220 235 255 220 235 255 220 235 255 220 235 255 220 235 255 220 235 255 220 235 255 220 235 255 220 235 255 220 235 255 220 235 255 220 235 255 220 235 255 220 235 255 220 235 255 220 235 255 220 235 255 220 235 255 220 235 255 220 235 255 220 235 255 220 235 255 220 235 255 220 235 255 220 235 255 220 235 255 220 235 255 220 235 255 220 235 255 220 235 255 220 235 255 220 235 255 220 235 255 220 235 255 220 235 255 220 235 255 220 235 255 220 235 255 220 235 255 220 235 255 220 235 255 220 235 255 220 235 255 220 235 255 220 235 255 220 235 255 220 235 255 220 235 255 220 235 255 220 235 255 220 235 255 220 235 255 220 235 255 220 235 255 220 235 255 220 235 255 220 235 255 220 235 255 220 235 255 220 235 255 220 235 255 220 235 255 220 235 255 220 235 255 220 235 255 220 235 255 220 235 255 220 235 255 220 235 255 220 235 255 220 235 255 220 235 255 220 235 255 220 235 255 220 235 255 220 235 255 220 235 255 220 235 255 220 235 255 220 235 255 220 235 255 220 235 255 220 235 255 220 235 255 220 235 255 220 235 255 220 235 255 220 235 255 220 235 255 220 235 255 220 235 255 220 235 255 220 235 255 220 235 255 220 235 255 220 235 255 220 235 255 220 235 255 220 235 255 220 235 255 220 235 255 220 235 255 220 235 255 220 235 255 220 235 255 220 235 255 220 235 255 220 235 255 220 235 255 220 235 255 220 235 255 220 235 255 220 235 255 220 235 255 220 235 255 220 235 255 220 235 255 220 235 255 220 235 255 220 235 255 220 235 255 220 235 255 220 235 255 220 235 255 220 235 255 220 235 255 220 235 255 220 235 255 220 235 255 220 235 255 220 235 255 220 235 255 220 235 255 220 235 255 220 235 255 220 235 255 220 235 255 220 235 255 220 235 255 220 235 255 220 235 255 220 235 255 220 235 255 220 235 255 220 235 255 220 235 255 220 235 255 220 235 255 220 235 255 220 235 255 220 235 255 220 235 255 220 235 255 220 235 255 220 235 255 220 235 255 220 235 255 220 235 255 220 235 255 220 235 255 220 235 255 220 235 255 220 235 255 220 235 255 220 235 255 220 235 255 220 235 255 220 235 255 220 235 255 220 235 255 220 235 255 220 235 255 220 235 255 220 235 255 220 235 255 220 235 255 220 235 255 220 235 255 220 235 255 220 235 255 220 235 255 220 235 255 220 235 255 220 235 255 220 235 255 220 235 255 220 235 255 220 235 255 220 235 255 220 235 255 220 235 255 220 235 255 220 235 255 220 235 255 220 235 255 220 235 255 220 235 255 220 235 255 220 235 255 220 235 255 220 235 255 220 235 255 220 235 255 220 235 255 220 235 255 220 235 255 220 235 255 220 235 255 220 235 255 220 235 255 220 235 255 220 235 255 220 235 255 220 235 255 220 235 255 220 235 255 220 235 255 220 235 255 220 235 255 220 235 255 220 235 255 220 235 255 220 235 255 220 235 255 220 235 255 220 235 255 220 235 255 220 235 255 220 235 255 220 235 255 220 235 255 220 235 255 220 235 255 220 235 255 220 235 255 220 235 255 220 235 255 220 235 255 220 235 255 220 235 255 220 235 255 220 235 255 220 235 255 220 235 255 220 235 255 220 235 255 220 235 255 220 235 255 220 235 255 220 235 255 220 235 255 220 235 255 220 235 255 220 235 255 220 235 255 220 235 255 220 235 255 220 235 255 220 235 255 220 235 255 220 235 255 220 235 255 220 235 255 220 235 255 220 235 255 220 235 255 220 235 255 220 235 255 220 235 255 220 235 255 220 235 255 220 235 255 220 235 255 220 235 255 220 235 255 220 235 255 220 235 255 220 235 255 220 235 255 220 235 255 220 235 255 220 235 255 220 235 255 220 235 255 220 235 255 220 235 255 220 235 255 220 235 255 220 235 255 220 235 255 220 235 255 220 235 255 220 235 255 220 235 255 220 235 255 220 235 255 220 235 255 220 235 255 220 235 255 220 235 255 220 235 255 220 235 255 220 235 255 220 235 255 220 235 255 220 235 255 220 235 255 220 235 255 220 235 255 220 235 255 220 235 255 220 235 255 220 235 255 220 235 255 220 235 255 220 235 255 220 235 255 220 235 255 220 235 255 220 235 255 220 235 255 220 235 255 220 235 255 220 235 255 220 235 255 
220 235 255 220 235 255 220 235 255 220 235 255 220 235 255 220 235 255 220 235 255 220 235 255 220 235 255 220 235 255 220 235 255 220 235 255 220 235 255 220 235 255 220 235 255 220 235 255 220 235 255 220 235 255 220 235 255 220 235 255 220 235 255 220 235 255 220 235 255 220 235 255 220 235 255 220 235 255 220 235 255 220 235 255 220 235 255 220 235 255 220 235 255 220 235 255 220 235 255 220 235 255 220 235 255 220 235 255 220 235 255 220 235 255 220 235 255 220 235 255 220 235 255 220 235 255 220 235 255 220 235 255 220 235 255 220 235 255 220 235 255 220 235 255 220 235 255 220 235 255 220 235 255 220 235 255 220 235 255 220 235 255 220 235 255 220 235 255 220 235 255 220 235 255 220 235 255 220 235 255 220 235 255 220 235 255 220 235 255 220 235 255 220 235 255 220 235 255 220 235 255 220 235 255 220 235 255 220 235 255 220 235 255 220 235 255 220 235 255 220 235 255 220 235 255 220 235 255 220 235 255 220 235 255 220 235 255 220 235 255 220 235 255 220 235 255 220 235 255 220 235 255 220 235 255 220 235 255 220 235 255 220 235 255 220 235 255 220 235 255 220 235 255 220 235 255 220 235 255 220 235 255 220 235 255 220 235 255 220 235 255 220 235 255 220 235 255 220 235 255 220 235 255 220 235 255 220 235 255 220 235 255 220 235 255 220 235 255 220 235 255 220 235 255 220 235 255 220 235 255 220 235 255 220 235 255 220 235 255 220 235 255 220 235 255 220 235 255 220 235 255 220 235 255 220 235 255 220 235 255 220 235 255 220 235 255 220 235 255 220 235 255 220 235 255 220 235 255 220 235 255 220 235 255 220 235 255 220 235 255 220 235 255 220 235 255 220 235 255 220 235 255 220 235 255 220 235 255 220 235 255 220 235 255 220 235 255 220 235 255 220 235 255 220 235 255 220 235 255 220 235 255 220 235 255 220 235 255 220 235 255 220 235 255 220 235 255 220 235 255 220 235 255 220 235 255 220 235 255 220 235 255 220 235 255 220 235 255 220 235 255 220 235 255 220 235 255 220 235 255 220 235 255 220 235 255 220 235 255 220 235 255 220 235 255 220 235 255 220 235 255 220 235 255 220 235 255 220 235 255 220 235 255 220 235 255 220 235 255 220 235 255 220 235 255 220 235 255 220 235 255 220 235 255 220 235 255 220 235 255 220 235 255 220 235 255 220 235 255 220 235 255 220 235 255 220 235 255 220 235 255 220 235 255 220 235 255 220 235 255 220 235 255 220 235 255 220 235 255 220 235 255 220 235 255 220 235 255 220 235 255 220 235 255 220 235 255 220 235 255 220 235 255 220 235 255 220 235 255 220 235 255 220 235 255 220 235 255 220 235 255 220 235 255 220 235 255 220 235 255 220 235 255 220 235 255 220 235 255 220 235 255 220 235 255 220 235 255 220 235 255 220 235 255 220 235 255 220 235 255 220 235 255 220 235 255 220 235 255 220 235 255 220 235 255 220 235 255 220 235 255 220 235 255 220 235 255 220 235 255 220 235 255 220 235 255 220 235 255 220 235 255 220 235 255 220 235 255 220 235 255 220 235 255 220 235 255 220 235 255 220 235 255 220 235 255 220 235 255 220 235 255 220 235 255 220 235 255 220 235 255 220 235 255 220 235 255 220 235 255 220 235 255 220 235 255 220 235 255 220 235 255 220 235 255 220 235 255 220 235 255 220 235 255 220 235 255 220 235 255 220 235 255 220 235 255 220 235 255 220 235 255 220 235 255 220 235 255 220 235 255 220 235 255 220 235 255 220 235 255 220 235 255 220 235 255 220 235 255 220 235 255 220 235 255 220 235 255 220 235 255 220 235 255 220 235 255 220 235 255 220 235 255 220 235 255 220 235 255 220 235 255 220 235 255 220 235 255 220 235 255 220 235 255 220 235 255 220 235 255 220 235 255 220 235 255 220 235 255 220 235 255 220 235 255 220 235 255 220 235 255 220 235 255 220 235 255 220 235 255 220 235 255 220 235 255 220 235 255 220 235 255 220 235 255 220 235 255 220 235 255 220 235 255 220 235 255 220 235 255 220 235 255 220 235 255 220 235 255 220 235 255 220 235 255 220 235 255 220 235 255 220 235 255 220 235 255 220 235 255 220 235 255 220 235 255 220 235 255 220 235 255 220 235 255 220 235 255 220 235 255 220 235 255 220 235 255 220 235 255 220 235 255 220 235 255 220 235 255 220 235 255 220 235 255 220 235 255 220 235 255 220 235 255 220 235 255 220 235 255 220 235 255 220 235 255 220 235 255 220 235 255 220 235 255 220 235 255 220 235 255 220 235 255 220 235 255 220 235 255 220 235 255 220 235 255 220 235 255 220 235 255 220 235 255 220 235 255 220 235 255 220 235 255 220 235 255 220 235 255 220 235 255 220 235 255 220 235 255 220 235 255 220 235 255 220 235 255 220 235 255 220 235 255 220 235 255 220 235 255 220 235 255 220 235 255 220 235 255 220 235 255 220 235 255 220 235 255 220 235 255 220 235 255 220 235 255 220 235 255 220 235 255 220 235 255 220 235 255 220 235 255 220 235 255 220 235 255 220 235 255 220 235 255 220 235 255 220 235 255 220 235 255 220 235 255 220 235 255 220 235 255 220 235 255 220 235 255 220 235 255 220 235 255 220 235 255 220 235 255 220 235 255 220 235 255 220 235 255 220 235 255 220 235 255 220 235 255 220 235 255 220 235 255 220 235 255 220 235 255 220 235 255 220 235 255 220 235 255 220 235 255 220 235 255 220 235 255 220 235 255 220 235 255 220 235 255 220 235 255 220 235 255 220 235 255 220 235 255 220 235 255 220 235 255 220 235 255 220 235 255 220 235 255 220 235 255 220 235 255 220 235 255 220 235 255 220 235 255 220 235 255 220 235 255 220 235 255 220 235 255 220 235 255 220 235 255 220 235 255 220 235 255 220 235 255 220 235 255 220 235 255 220 235 255 220 235 255 220 235 255 220 235 255 220 235 255 220 235 255 220 235 255 220 235 255 220 235 255 220 235 255 220 235 255 220 235 255 220 235 255 220 235 255 220 235 255 220 235 255 220 235 255 220 235 255 220 235 255 220 235 255 220 235 255 220 235 255 220 235 255 220 235 255 220 235 255 220 235 255 220 235 255 220 235 255 220 235 255 220 235 255 220 235 255 220 235 255 220 235 255 220 235 255 220 235 255 220 235 255 220 235 255 220 235 255 220 235 255 220 235 255 220 235 255 220 235 255 220 235 255 220 235 255 220 235 255 220 235 255 220 235 255 220 235 255 220 235 255 220 235 255 220 235 255 220 235 255 220 235 255 220 235 255 220 235 255 220 235 255 220 235 255 220 235 255 220 235 255 220 235 255 220 235 255 220 235 255 220 235 255 220 235 255 220 235 255 220 235 255 220 235 255 220 235 255 220 235 255 220 235 255 220 235 255 220 235 255 220 235 255 220 235 255 220 235 255 220 235 255 220 235 255 220 235 255 220 235 255 220 235 255 220 235 255 220 235 255 220 235 255 220 235 255 220 235 255 220 235 255 220 235 255 220 235 255 220 235 255 220 235 255 220 235 255 220 235 255 220 235 255 220 235 255 220 235 255 220 235 255 220 235 255 220 235 255 220 235 255 220 235 255 220 235 255 220 235 255 220 235 255 220 235 255 220 235 255 220 235 255 220 235 255 220 235 255 220 235 255 220 235 255 220 235 255 220 235 255 220 235 255 220 235 255 220 235 255 220 235 255 220 235 255 220 235 255 220 235 255 220 235 255 220 235 255 220 235 255 220 235 255 220 235 255 220 235 255 220 235 255 220 235 255 220 235 255 220 235 255 220 235 255 220 235 255 220 235 255 220 235 255 220 235 255 220 235 255 220 235 255 220 235 255 220 235 255 220 235 255 220 235 255 220 235 255 220 235 255 220 235 255 220 235 255 220 235 255 220 235 255 220 235 255 220 235 255 220 235 255 220 235 255 220 235 255 220 235 255 220 235 255 220 235 255 220 235 255 220 235 255 220 235 255 220 235 255 220 235 255 220 235 255 220 235 255 220 235 255 220 235 255 220 235 255 220 235 255 220 235 255 220 235 255 220 235 255 220 235 255 220 235 255 220 235 255 220 235 255 220 235 255 220 235 255 220 235 255 220 235 255 220 235 255 220 235 255 220 235 255 220 235 255 220 235 255 220 235 255 220 235 255 220 235 255 220 235 255 220 235 255 220 235 255 220 235 255 220 235 255 220 235 255 220 235 255 220 235 255 220 235 255 220 235 255 220 235 255 220 235 255 220 235 255 220 235 255 220 235 255 220 235 255 220 235 255 220 235 255 220 235 255 220 235 255 220 235 255 220 235 255 220 235 255 220 235 255 220 235 255 220 235 255 220 235 255 220 235 255 220 235 255 220 235 255 220 235 255 220 235 255 220 235 255 220 235 255 220 235 255 220 235 255 220 235 255 220 235 255 220 235 255 220 235 255 220 235 255 220 235 255 220 235 255 220 235 255 220 235 255 220 235 255 220 235 255 220 235 255 220 235 255 220 235 255 220 235 255 220 235 255 220 235 255 220 235 255 220 235